P3
10 6
255
165 201 255
65 44 202
90 37 210
106 35 213
121 34 214
134 34 214
149 35 213
165 37 210
190 44 202
165 201 255
174 207 255
172 205 255
76 31 193
100 27 201
119 25 204
136 25 204
155 27 201
179 31 193
172 205 255
174 207 255
186 214 255
185 213 255
183 212 255
48 154 224
106 149 252
149 149 252
207 154 224
183 212 255
185 213 255
186 214 255
197 221 255
198 221 255
200 222 255
48 101 224
106 106 252
149 106 252
207 101 224
200 222 255
198 221 255
197 221 255
209 227 255
211 229 255
214 231 255
218 233 255
101 48 224
154 48 224
218 233 255
214 231 255
211 229 255
209 227 255
218 233 255
222 235 255
226 238 255
230 240 255
232 241 255
232 241 255
230 240 255
226 238 255
222 235 255
218 233 255
