P3
100 100
255
155 195 255
154 195 255
154 195 255
154 195 255
154 194 255
153 194 255
153 194 255
153 194 255
153 194 255
152 194 255
152 194 255
152 193 255
152 193 255
152 193 255
151 193 255
151 193 255
151 193 255
151 193 255
150 192 255
150 192 255
150 192 255
150 192 255
150 192 255
149 192 255
149 192 255
149 192 255
149 191 255
149 191 255
148 191 255
148 191 255
148 191 255
148 191 255
13 85 167
24 73 179
32 65 187
40 60 192
47 55 197
54 52 200
61 49 203
67 46 206
73 44 208
79 42 210
85 41 212
91 39 213
97 38 214
102 37 215
108 37 216
114 36 216
119 36 216
125 36 217
130 36 217
136 36 216
141 36 216
147 37 216
153 37 215
158 38 214
164 39 213
170 41 212
176 42 210
182 44 208
188 46 206
194 49 203
201 52 200
208 55 197
215 60 192
223 65 187
231 73 179
242 85 167
148 191 255
148 191 255
148 191 255
148 191 255
149 191 255
149 191 255
149 192 255
149 192 255
149 192 255
150 192 255
150 192 255
150 192 255
150 192 255
150 192 255
151 193 255
151 193 255
151 193 255
151 193 255
152 193 255
152 193 255
152 193 255
152 194 255
152 194 255
153 194 255
153 194 255
153 194 255
153 194 255
154 194 255
154 195 255
154 195 255
154 195 255
155 195 255
155 195 255
155 195 255
155 195 255
154 195 255
154 195 255
154 195 255
154 194 255
153 194 255
153 194 255
153 194 255
153 194 255
152 194 255
152 194 255
152 193 255
152 193 255
152 193 255
151 193 255
151 193 255
151 193 255
151 193 255
150 192 255
150 192 255
150 192 255
150 192 255
150 192 255
149 192 255
149 192 255
149 192 255
149 192 255
149 191 255
149 191 255
148 191 255
10 86 159
22 72 174
31 63 182
39 58 188
46 53 193
53 49 197
60 46 200
66 44 203
73 41 205
79 40 207
85 38 208
91 37 210
96 36 211
102 35 212
108 34 213
113 33 213
119 33 214
125 33 214
130 33 214
136 33 214
142 33 213
147 34 213
153 35 212
159 36 211
164 37 210
170 38 208
176 40 207
182 41 205
189 44 203
195 46 200
202 49 197
209 53 193
216 58 188
224 63 182
233 72 174
245 86 159
148 191 255
149 191 255
149 191 255
149 192 255
149 192 255
149 192 255
149 192 255
150 192 255
150 192 255
150 192 255
150 192 255
150 192 255
151 193 255
151 193 255
151 193 255
151 193 255
152 193 255
152 193 255
152 193 255
152 194 255
152 194 255
153 194 255
153 194 255
153 194 255
153 194 255
154 194 255
154 195 255
154 195 255
154 195 255
155 195 255
155 195 255
155 195 255
156 196 255
155 195 255
155 195 255
155 195 255
155 195 255
154 195 255
154 195 255
154 195 255
154 194 255
153 194 255
153 194 255
153 194 255
153 194 255
153 194 255
152 194 255
152 193 255
152 193 255
152 193 255
151 193 255
151 193 255
151 193 255
151 193 255
151 193 255
150 192 255
150 192 255
150 192 255
150 192 255
150 192 255
149 192 255
149 192 255
149 192 255
149 192 255
6 92 145
20 71 168
30 62 177
38 56 184
45 51 189
52 47 193
59 44 196
66 41 199
72 39 201
78 37 203
84 35 205
90 34 207
96 33 208
102 32 209
108 31 210
113 31 210
119 30 210
125 30 211
130 30 211
136 30 210
142 31 210
147 31 210
153 32 209
159 33 208
165 34 207
171 35 205
177 37 203
183 39 201
189 41 199
196 44 196
203 47 193
210 51 189
217 56 184
225 62 177
235 71 168
249 92 145
149 192 255
149 192 255
149 192 255
149 192 255
150 192 255
150 192 255
150 192 255
150 192 255
150 192 255
151 193 255
151 193 255
151 193 255
151 193 255
151 193 255
152 193 255
152 193 255
152 193 255
152 194 255
153 194 255
153 194 255
153 194 255
153 194 255
153 194 255
154 194 255
154 195 255
154 195 255
154 195 255
155 195 255
155 195 255
155 195 255
155 195 255
156 196 255
156 196 255
156 196 255
156 196 255
155 195 255
155 195 255
155 195 255
155 195 255
154 195 255
154 195 255
154 195 255
154 194 255
154 194 255
153 194 255
153 194 255
153 194 255
153 194 255
152 194 255
152 193 255
152 193 255
152 193 255
151 193 255
151 193 255
151 193 255
151 193 255
151 193 255
150 192 255
150 192 255
150 192 255
150 192 255
150 192 255
150 192 255
149 192 255
149 192 255
18 71 161
28 61 172
36 54 179
44 49 185
51 45 189
58 42 192
65 39 195
71 36 198
78 35 200
84 33 202
90 31 203
96 30 204
102 29 205
107 29 206
113 28 207
119 28 207
125 28 207
130 28 207
136 28 207
142 28 207
148 29 206
153 29 205
159 30 204
165 31 203
171 33 202
177 35 200
184 36 198
190 39 195
197 42 192
204 45 189
211 49 185
219 54 179
227 61 172
237 71 161
149 192 255
149 192 255
150 192 255
150 192 255
150 192 255
150 192 255
150 192 255
150 192 255
151 193 255
151 193 255
151 193 255
151 193 255
151 193 255
152 193 255
152 193 255
152 193 255
152 194 255
153 194 255
153 194 255
153 194 255
153 194 255
154 194 255
154 194 255
154 195 255
154 195 255
154 195 255
155 195 255
155 195 255
155 195 255
155 195 255
156 196 255
156 196 255
156 196 255
157 196 255
157 196 255
156 196 255
156 196 255
156 196 255
156 196 255
155 195 255
155 195 255
155 195 255
155 195 255
154 195 255
154 195 255
154 194 255
154 194 255
153 194 255
153 194 255
153 194 255
153 194 255
152 194 255
152 194 255
152 193 255
152 193 255
152 193 255
151 193 255
151 193 255
151 193 255
151 193 255
151 193 255
150 192 255
150 192 255
150 192 255
150 192 255
150 192 255
15 72 153
26 60 166
35 52 174
43 47 180
50 43 184
57 39 188
64 36 191
71 34 194
77 32 196
83 30 198
89 29 200
95 28 201
101 27 202
107 26 203
113 25 203
119 25 204
125 25 204
130 25 204
136 25 204
142 25 203
148 26 203
154 27 202
160 28 201
166 29 200
172 30 198
178 32 196
184 34 194
191 36 191
198 39 188
205 43 184
212 47 180
220 52 174
229 60 166
240 72 153
150 192 255
150 192 255
150 192 255
150 192 255
150 192 255
151 193 255
151 193 255
151 193 255
151 193 255
151 193 255
152 193 255
152 193 255
152 193 255
152 194 255
152 194 255
153 194 255
153 194 255
153 194 255
153 194 255
154 194 255
154 194 255
154 195 255
154 195 255
155 195 255
155 195 255
155 195 255
155 195 255
156 196 255
156 196 255
156 196 255
156 196 255
157 196 255
157 196 255
157 197 255
157 196 255
157 196 255
157 196 255
156 196 255
156 196 255
156 196 255
156 196 255
155 195 255
155 195 255
155 195 255
155 195 255
154 195 255
154 195 255
154 195 255
154 194 255
153 194 255
153 194 255
153 194 255
153 194 255
153 194 255
152 194 255
152 193 255
152 193 255
152 193 255
152 193 255
151 193 255
151 193 255
151 193 255
151 193 255
151 193 255
150 192 255
150 192 255
11 76 140
24 59 159
33 51 168
41 45 175
49 41 180
56 37 184
63 34 187
70 32 190
76 30 192
83 28 194
89 26 196
95 25 197
101 24 198
107 23 199
113 23 200
119 23 200
125 22 200
130 22 200
136 23 200
142 23 200
148 23 199
154 24 198
160 25 197
166 26 196
172 28 194
179 30 192
185 32 190
192 34 187
199 37 184
206 41 180
214 45 175
222 51 168
231 59 159
244 76 140
150 192 255
150 192 255
151 193 255
151 193 255
151 193 255
151 193 255
151 193 255
152 193 255
152 193 255
152 193 255
152 193 255
152 194 255
153 194 255
153 194 255
153 194 255
153 194 255
153 194 255
154 194 255
154 195 255
154 195 255
154 195 255
155 195 255
155 195 255
155 195 255
155 195 255
156 196 255
156 196 255
156 196 255
156 196 255
157 196 255
157 196 255
157 196 255
157 197 255
158 197 255
158 197 255
157 197 255
157 196 255
157 196 255
157 196 255
156 196 255
156 196 255
156 196 255
156 196 255
155 195 255
155 195 255
155 195 255
155 195 255
154 195 255
154 195 255
154 195 255
154 194 255
154 194 255
153 194 255
153 194 255
153 194 255
153 194 255
152 194 255
152 194 255
152 193 255
152 193 255
152 193 255
152 193 255
151 193 255
151 193 255
151 193 255
151 193 255
151 193 255
21 60 151
31 50 162
40 44 169
48 39 175
55 35 179
62 32 183
69 30 185
76 27 188
82 26 190
88 24 192
95 23 193
101 22 194
107 21 195
113 20 196
119 20 196
125 20 197
130 20 197
136 20 196
142 20 196
148 21 195
154 22 194
160 23 193
167 24 192
173 26 190
179 27 188
186 30 185
193 32 183
200 35 179
207 39 175
215 44 169
224 50 162
234 60 151
151 193 255
151 193 255
151 193 255
151 193 255
151 193 255
152 193 255
152 193 255
152 193 255
152 193 255
152 194 255
152 194 255
153 194 255
153 194 255
153 194 255
153 194 255
154 194 255
154 194 255
154 195 255
154 195 255
154 195 255
155 195 255
155 195 255
155 195 255
155 195 255
156 196 255
156 196 255
156 196 255
156 196 255
157 196 255
157 196 255
157 196 255
157 197 255
158 197 255
158 197 255
158 197 255
158 197 255
158 197 255
158 197 255
157 197 255
157 197 255
157 196 255
157 196 255
156 196 255
156 196 255
156 196 255
156 196 255
156 196 255
155 195 255
155 195 255
155 195 255
155 195 255
154 195 255
154 195 255
154 195 255
154 194 255
153 194 255
153 194 255
153 194 255
153 194 255
153 194 255
152 194 255
152 194 255
152 193 255
152 193 255
152 193 255
152 193 255
151 193 255
151 193 255
18 63 139
29 50 154
38 43 163
46 38 169
54 33 174
61 30 178
68 27 181
75 25 183
81 23 186
88 22 187
94 20 189
100 19 190
106 19 191
112 18 192
118 18 192
124 17 193
131 17 193
137 18 192
143 18 192
149 19 191
155 19 190
161 20 189
167 22 187
174 23 186
180 25 183
187 27 181
194 30 178
201 33 174
209 38 169
217 43 163
226 50 154
237 63 139
151 193 255
151 193 255
152 193 255
152 193 255
152 193 255
152 193 255
152 194 255
152 194 255
153 194 255
153 194 255
153 194 255
153 194 255
153 194 255
154 194 255
154 195 255
154 195 255
154 195 255
155 195 255
155 195 255
155 195 255
155 195 255
156 196 255
156 196 255
156 196 255
156 196 255
156 196 255
157 196 255
157 196 255
157 197 255
157 197 255
158 197 255
158 197 255
158 197 255
158 197 255
159 198 255
159 197 255
159 197 255
158 197 255
158 197 255
158 197 255
158 197 255
157 197 255
157 196 255
157 196 255
157 196 255
156 196 255
156 196 255
156 196 255
156 196 255
155 195 255
155 195 255
155 195 255
155 195 255
154 195 255
154 195 255
154 195 255
154 195 255
154 194 255
153 194 255
153 194 255
153 194 255
153 194 255
153 194 255
153 194 255
152 194 255
152 194 255
152 193 255
152 193 255
152 193 255
27 51 145
36 42 155
45 36 163
53 32 168
60 28 172
67 25 176
74 23 178
81 21 181
87 19 183
94 18 184
100 17 186
106 16 187
112 15 188
118 15 188
124 15 188
131 15 188
137 15 188
143 15 188
149 16 187
155 17 186
161 18 184
168 19 183
174 21 181
181 23 178
188 25 176
195 28 172
202 32 168
210 36 163
219 42 155
228 51 145
152 193 255
152 193 255
152 193 255
152 194 255
152 194 255
153 194 255
153 194 255
153 194 255
153 194 255
153 194 255
153 194 255
154 194 255
154 195 255
154 195 255
154 195 255
154 195 255
155 195 255
155 195 255
155 195 255
155 195 255
156 196 255
156 196 255
156 196 255
156 196 255
157 196 255
157 196 255
157 196 255
157 197 255
158 197 255
158 197 255
158 197 255
158 197 255
159 197 255
159 197 255
159 198 255
160 198 255
159 198 255
159 198 255
159 198 255
159 197 255
158 197 255
158 197 255
158 197 255
158 197 255
157 197 255
157 197 255
157 196 255
157 196 255
156 196 255
156 196 255
156 196 255
156 196 255
156 196 255
155 195 255
155 195 255
155 195 255
155 195 255
154 195 255
154 195 255
154 195 255
154 195 255
154 194 255
153 194 255
153 194 255
153 194 255
153 194 255
153 194 255
153 194 255
152 194 255
152 194 255
23 54 133
34 42 147
43 35 155
51 31 161
59 27 166
66 24 170
73 21 173
80 19 176
87 17 178
93 16 180
99 15 181
106 14 182
112 13 183
118 13 183
124 13 184
131 13 184
137 13 183
143 13 183
149 14 182
156 15 181
162 16 180
168 17 178
175 19 176
182 21 173
189 24 170
196 27 166
204 31 161
212 35 155
221 42 147
232 54 133
152 194 255
152 194 255
153 194 255
153 194 255
153 194 255
153 194 255
153 194 255
153 194 255
154 194 255
154 195 255
154 195 255
154 195 255
154 195 255
155 195 255
155 195 255
155 195 255
155 195 255
156 196 255
156 196 255
156 196 255
156 196 255
156 196 255
157 196 255
157 196 255
157 197 255
157 197 255
158 197 255
158 197 255
158 197 255
158 197 255
159 197 255
159 198 255
159 198 255
159 198 255
160 198 255
160 198 255
160 198 255
160 198 255
159 198 255
159 198 255
159 198 255
159 197 255
158 197 255
158 197 255
158 197 255
158 197 255
158 197 255
157 197 255
157 196 255
157 196 255
157 196 255
156 196 255
156 196 255
156 196 255
156 196 255
155 195 255
155 195 255
155 195 255
155 195 255
155 195 255
154 195 255
154 195 255
154 195 255
154 195 255
154 194 255
154 194 255
153 194 255
153 194 255
153 194 255
153 194 255
153 194 255
31 44 136
41 35 147
50 30 154
57 25 160
65 22 164
72 19 167
79 17 170
86 15 172
92 14 174
99 12 176
105 12 177
112 11 178
118 10 178
124 10 179
131 10 179
137 10 178
143 11 178
150 12 177
156 12 176
163 14 174
169 15 172
176 17 170
183 19 167
190 22 164
198 25 160
205 30 154
214 35 147
224 44 136
153 194 255
153 194 255
153 194 255
153 194 255
153 194 255
154 194 255
154 194 255
154 195 255
154 195 255
154 195 255
154 195 255
155 195 255
155 195 255
155 195 255
155 195 255
155 195 255
156 196 255
156 196 255
156 196 255
156 196 255
157 196 255
157 196 255
157 196 255
157 197 255
158 197 255
158 197 255
158 197 255
158 197 255
158 197 255
159 197 255
159 198 255
159 198 255
159 198 255
160 198 255
160 198 255
160 198 255
161 199 255
161 199 255
160 198 255
160 198 255
160 198 255
160 198 255
159 198 255
159 198 255
159 198 255
159 197 255
158 197 255
158 197 255
158 197 255
158 197 255
157 197 255
157 197 255
157 196 255
157 196 255
157 196 255
156 196 255
156 196 255
156 196 255
156 196 255
155 195 255
155 195 255
155 195 255
155 195 255
155 195 255
155 195 255
154 195 255
154 195 255
154 195 255
154 195 255
154 194 255
154 194 255
153 194 255
27 49 121
38 36 137
48 29 146
56 24 152
64 21 157
71 18 161
78 15 164
85 13 167
92 12 169
98 10 170
105 9 172
111 9 172
118 8 173
124 8 173
131 8 173
137 8 173
144 9 172
150 9 172
157 10 170
163 12 169
170 13 167
177 15 164
184 18 161
191 21 157
199 24 152
207 29 146
217 36 137
228 49 121
153 194 255
154 194 255
154 194 255
154 195 255
154 195 255
154 195 255
154 195 255
155 195 255
155 195 255
155 195 255
155 195 255
155 195 255
155 195 255
156 196 255
156 196 255
156 196 255
156 196 255
157 196 255
157 196 255
157 196 255
157 197 255
157 197 255
158 197 255
158 197 255
158 197 255
158 197 255
159 197 255
159 198 255
159 198 255
159 198 255
160 198 255
160 198 255
160 198 255
160 198 255
161 199 255
161 199 255
161 199 255
161 199 255
161 199 255
161 199 255
160 198 255
160 198 255
160 198 255
160 198 255
160 198 255
159 198 255
159 198 255
159 197 255
159 197 255
158 197 255
158 197 255
158 197 255
158 197 255
157 197 255
157 197 255
157 196 255
157 196 255
157 196 255
156 196 255
156 196 255
156 196 255
156 196 255
156 196 255
155 195 255
155 195 255
155 195 255
155 195 255
155 195 255
155 195 255
154 195 255
154 195 255
154 195 255
154 195 255
35 39 124
45 30 136
54 24 144
62 20 149
70 16 154
77 14 157
84 12 160
91 10 162
98 9 164
105 7 166
111 7 167
118 6 167
124 6 168
131 6 168
137 6 167
144 7 167
150 7 166
157 9 164
164 10 162
171 12 160
178 14 157
185 16 154
193 20 149
201 24 144
210 30 136
220 39 124
154 195 255
154 195 255
154 195 255
154 195 255
155 195 255
155 195 255
155 195 255
155 195 255
155 195 255
155 195 255
156 196 255
156 196 255
156 196 255
156 196 255
156 196 255
157 196 255
157 196 255
157 196 255
157 197 255
157 197 255
158 197 255
158 197 255
158 197 255
158 197 255
159 197 255
159 197 255
159 198 255
159 198 255
160 198 255
160 198 255
160 198 255
160 198 255
160 198 255
161 199 255
161 199 255
161 199 255
161 199 255
162 199 255
162 199 255
162 199 255
161 199 255
161 199 255
161 199 255
161 199 255
160 198 255
160 198 255
160 198 255
160 198 255
159 198 255
159 198 255
159 198 255
159 197 255
159 197 255
158 197 255
158 197 255
158 197 255
158 197 255
157 197 255
157 197 255
157 196 255
157 196 255
157 196 255
156 196 255
156 196 255
156 196 255
156 196 255
156 196 255
156 196 255
155 195 255
155 195 255
155 195 255
155 195 255
155 195 255
155 195 255
155 195 255
42 32 123
52 24 134
60 19 141
68 15 146
76 12 150
83 10 153
90 8 156
97 7 158
104 6 159
111 5 160
118 4 161
124 4 161
131 4 161
137 4 161
144 5 160
151 6 159
158 7 158
165 8 156
172 10 153
179 12 150
187 15 146
195 19 141
203 24 134
213 32 123
155 195 255
155 195 255
155 195 255
155 195 255
155 195 255
155 195 255
155 195 255
156 196 255
156 196 255
156 196 255
156 196 255
156 196 255
156 196 255
157 196 255
157 196 255
157 196 255
157 197 255
157 197 255
158 197 255
158 197 255
158 197 255
158 197 255
159 197 255
159 197 255
159 198 255
159 198 255
159 198 255
160 198 255
160 198 255
160 198 255
160 198 255
161 199 255
161 199 255
161 199 255
161 199 255
162 199 255
162 199 255
162 199 255
163 200 255
162 200 255
162 200 255
162 199 255
162 199 255
162 199 255
161 199 255
161 199 255
161 199 255
161 199 255
160 198 255
160 198 255
160 198 255
160 198 255
159 198 255
159 198 255
159 198 255
159 197 255
159 197 255
158 197 255
158 197 255
158 197 255
158 197 255
157 197 255
157 197 255
157 196 255
157 196 255
157 196 255
157 196 255
156 196 255
156 196 255
156 196 255
156 196 255
156 196 255
156 196 255
155 195 255
155 195 255
155 195 255
37 42 98
49 26 120
58 20 130
67 15 136
75 12 141
82 9 145
90 7 148
97 5 150
104 4 152
110 3 153
117 3 154
124 2 154
131 2 154
138 3 154
145 3 153
151 4 152
158 5 150
165 7 148
173 9 145
180 12 141
188 15 136
197 20 130
206 26 120
218 42 98
155 195 255
155 195 255
155 195 255
156 196 255
156 196 255
156 196 255
156 196 255
156 196 255
156 196 255
157 196 255
157 196 255
157 196 255
157 196 255
157 197 255
157 197 255
158 197 255
158 197 255
158 197 255
158 197 255
159 197 255
159 197 255
159 198 255
159 198 255
159 198 255
160 198 255
160 198 255
160 198 255
160 198 255
161 199 255
161 199 255
161 199 255
161 199 255
162 199 255
162 199 255
162 199 255
162 200 255
162 200 255
163 200 255
163 200 255
163 200 255
163 200 255
163 200 255
162 200 255
162 200 255
162 199 255
162 199 255
161 199 255
161 199 255
161 199 255
161 199 255
161 199 255
160 198 255
160 198 255
160 198 255
160 198 255
159 198 255
159 198 255
159 198 255
159 197 255
159 197 255
158 197 255
158 197 255
158 197 255
158 197 255
158 197 255
157 197 255
157 197 255
157 196 255
157 196 255
157 196 255
157 196 255
156 196 255
156 196 255
156 196 255
156 196 255
156 196 255
156 196 255
44 35 97
56 22 116
65 16 125
73 12 131
81 9 136
89 6 139
96 4 142
103 3 144
110 2 145
117 1 146
124 1 147
131 1 147
138 1 146
145 2 145
152 3 144
159 4 142
166 6 139
174 9 136
182 12 131
190 16 125
199 22 116
211 35 97
156 196 255
156 196 255
156 196 255
156 196 255
156 196 255
156 196 255
157 196 255
157 196 255
157 196 255
157 196 255
157 197 255
157 197 255
158 197 255
158 197 255
158 197 255
158 197 255
158 197 255
159 197 255
159 197 255
159 198 255
159 198 255
159 198 255
160 198 255
160 198 255
160 198 255
160 198 255
161 199 255
161 199 255
161 199 255
161 199 255
161 199 255
162 199 255
162 199 255
162 200 255
162 200 255
163 200 255
163 200 255
163 200 255
163 200 255
164 201 255
164 200 255
164 200 255
163 200 255
163 200 255
163 200 255
163 200 255
162 200 255
162 200 255
162 199 255
162 199 255
161 199 255
161 199 255
161 199 255
161 199 255
161 199 255
160 198 255
160 198 255
160 198 255
160 198 255
160 198 255
159 198 255
159 198 255
159 198 255
159 197 255
159 197 255
158 197 255
158 197 255
158 197 255
158 197 255
158 197 255
157 197 255
157 197 255
157 196 255
157 196 255
157 196 255
157 196 255
157 196 255
157 196 255
156 196 255
51 33 89
62 19 110
71 13 118
80 9 124
87 6 129
95 4 132
102 2 134
110 1 136
117 0 137
124 0 138
131 0 138
138 0 137
145 1 136
153 2 134
160 4 132
168 6 129
175 9 124
184 13 118
193 19 110
204 33 89
156 196 255
157 196 255
157 196 255
157 196 255
157 196 255
157 196 255
157 196 255
157 197 255
157 197 255
158 197 255
158 197 255
158 197 255
158 197 255
158 197 255
159 197 255
159 197 255
159 198 255
159 198 255
159 198 255
160 198 255
160 198 255
160 198 255
160 198 255
160 198 255
161 199 255
161 199 255
161 199 255
161 199 255
161 199 255
162 199 255
162 199 255
162 200 255
162 200 255
163 200 255
163 200 255
163 200 255
163 200 255
164 200 255
164 200 255
164 201 255
165 201 255
164 201 255
164 201 255
164 201 255
164 200 255
164 200 255
163 200 255
163 200 255
163 200 255
163 200 255
162 200 255
162 200 255
162 199 255
162 199 255
162 199 255
161 199 255
161 199 255
161 199 255
161 199 255
160 198 255
160 198 255
160 198 255
160 198 255
160 198 255
159 198 255
159 198 255
159 198 255
159 198 255
159 197 255
159 197 255
158 197 255
158 197 255
158 197 255
158 197 255
158 197 255
158 197 255
157 197 255
157 197 255
157 197 255
157 196 255
157 196 255
157 196 255
69 17 100
78 11 110
86 7 116
94 4 120
102 2 123
109 1 125
117 0 127
124 0 127
131 0 127
138 0 127
146 1 125
153 2 123
161 4 120
169 7 116
177 11 110
186 17 100
157 196 255
157 196 255
157 196 255
157 197 255
157 197 255
157 197 255
158 197 255
158 197 255
158 197 255
158 197 255
158 197 255
158 197 255
159 197 255
159 197 255
159 198 255
159 198 255
159 198 255
159 198 255
160 198 255
160 198 255
160 198 255
160 198 255
160 198 255
161 199 255
161 199 255
161 199 255
161 199 255
162 199 255
162 199 255
162 199 255
162 200 255
162 200 255
163 200 255
163 200 255
163 200 255
163 200 255
164 200 255
164 200 255
164 201 255
164 201 255
164 201 255
165 201 255
165 201 255
165 201 255
165 201 255
165 201 255
164 201 255
164 201 255
164 201 255
164 200 255
164 200 255
163 200 255
163 200 255
163 200 255
163 200 255
162 200 255
162 200 255
162 199 255
162 199 255
162 199 255
161 199 255
161 199 255
161 199 255
161 199 255
161 199 255
160 198 255
160 198 255
160 198 255
160 198 255
160 198 255
159 198 255
159 198 255
159 198 255
159 198 255
159 197 255
159 197 255
159 197 255
158 197 255
158 197 255
158 197 255
158 197 255
158 197 255
158 197 255
158 197 255
158 197 255
74 19 84
84 11 98
93 6 105
101 4 109
108 2 112
116 1 114
124 0 115
131 0 115
139 1 114
147 2 112
154 4 109
162 6 105
171 11 98
181 19 84
158 197 255
158 197 255
158 197 255
158 197 255
158 197 255
158 197 255
158 197 255
158 197 255
159 197 255
159 197 255
159 197 255
159 198 255
159 198 255
159 198 255
159 198 255
160 198 255
160 198 255
160 198 255
160 198 255
160 198 255
161 199 255
161 199 255
161 199 255
161 199 255
161 199 255
162 199 255
162 199 255
162 199 255
162 200 255
162 200 255
163 200 255
163 200 255
163 200 255
163 200 255
164 200 255
164 200 255
164 201 255
164 201 255
164 201 255
165 201 255
165 201 255
165 201 255
165 201 255
166 202 255
166 202 255
166 202 255
165 201 255
165 201 255
165 201 255
165 201 255
165 201 255
164 201 255
164 201 255
164 201 255
164 200 255
163 200 255
163 200 255
163 200 255
163 200 255
163 200 255
162 200 255
162 199 255
162 199 255
162 199 255
162 199 255
161 199 255
161 199 255
161 199 255
161 199 255
161 199 255
160 198 255
160 198 255
160 198 255
160 198 255
160 198 255
160 198 255
159 198 255
159 198 255
159 198 255
159 198 255
159 198 255
159 197 255
159 197 255
159 197 255
159 197 255
158 197 255
158 197 255
158 197 255
90 18 74
99 9 87
107 6 93
116 4 96
124 3 98
131 3 98
139 4 96
148 6 93
156 9 87
165 18 74
158 197 255
158 197 255
158 197 255
159 197 255
159 197 255
159 197 255
159 197 255
159 198 255
159 198 255
159 198 255
159 198 255
159 198 255
160 198 255
160 198 255
160 198 255
160 198 255
160 198 255
160 198 255
161 199 255
161 199 255
161 199 255
161 199 255
161 199 255
162 199 255
162 199 255
162 199 255
162 199 255
162 200 255
163 200 255
163 200 255
163 200 255
163 200 255
163 200 255
164 200 255
164 201 255
164 201 255
164 201 255
165 201 255
165 201 255
165 201 255
165 201 255
165 201 255
166 202 255
166 202 255
166 202 255
167 202 255
167 202 255
166 202 255
166 202 255
166 202 255
166 202 255
165 201 255
165 201 255
165 201 255
165 201 255
165 201 255
164 201 255
164 201 255
164 201 255
164 200 255
164 200 255
163 200 255
163 200 255
163 200 255
163 200 255
163 200 255
162 200 255
162 199 255
162 199 255
162 199 255
162 199 255
161 199 255
161 199 255
161 199 255
161 199 255
161 199 255
161 199 255
160 198 255
160 198 255
160 198 255
160 198 255
160 198 255
160 198 255
160 198 255
159 198 255
159 198 255
159 198 255
159 198 255
159 198 255
159 198 255
159 198 255
159 198 255
159 198 255
159 198 255
159 198 255
159 198 255
159 198 255
159 198 255
159 198 255
159 198 255
159 198 255
159 198 255
159 198 255
159 198 255
159 198 255
159 198 255
160 198 255
160 198 255
160 198 255
160 198 255
160 198 255
160 198 255
160 198 255
161 199 255
161 199 255
161 199 255
161 199 255
161 199 255
161 199 255
162 199 255
162 199 255
162 199 255
162 199 255
162 200 255
163 200 255
163 200 255
163 200 255
163 200 255
163 200 255
164 200 255
164 200 255
164 201 255
164 201 255
164 201 255
165 201 255
165 201 255
165 201 255
165 201 255
165 201 255
166 202 255
166 202 255
166 202 255
166 202 255
167 202 255
167 202 255
167 203 255
167 203 255
167 202 255
167 202 255
167 202 255
166 202 255
166 202 255
166 202 255
166 202 255
166 202 255
165 201 255
165 201 255
165 201 255
165 201 255
165 201 255
164 201 255
164 201 255
164 201 255
164 200 255
163 200 255
163 200 255
163 200 255
163 200 255
163 200 255
163 200 255
162 200 255
162 199 255
162 199 255
162 199 255
162 199 255
161 199 255
161 199 255
161 199 255
161 199 255
161 199 255
161 199 255
161 199 255
161 199 255
160 198 255
160 198 255
160 198 255
160 198 255
160 198 255
160 198 255
160 198 255
160 198 255
160 198 255
160 198 255
160 198 255
160 198 255
160 198 255
160 198 255
160 198 255
160 198 255
160 198 255
160 198 255
160 198 255
160 198 255
160 198 255
160 198 255
160 198 255
160 198 255
161 199 255
161 199 255
161 199 255
161 199 255
161 199 255
161 199 255
161 199 255
161 199 255
162 199 255
162 199 255
162 199 255
162 199 255
162 200 255
163 200 255
163 200 255
163 200 255
163 200 255
163 200 255
163 200 255
164 200 255
164 201 255
164 201 255
164 201 255
165 201 255
165 201 255
165 201 255
165 201 255
165 201 255
166 202 255
166 202 255
166 202 255
166 202 255
166 202 255
167 202 255
167 202 255
167 202 255
167 203 255
167 203 255
168 203 255
168 203 255
168 203 255
168 203 255
167 203 255
167 203 255
167 202 255
167 202 255
167 202 255
166 202 255
166 202 255
166 202 255
166 202 255
166 202 255
165 201 255
165 201 255
165 201 255
165 201 255
164 201 255
164 201 255
164 201 255
164 201 255
164 200 255
164 200 255
163 200 255
163 200 255
163 200 255
163 200 255
163 200 255
162 200 255
162 200 255
162 199 255
162 199 255
162 199 255
162 199 255
162 199 255
161 199 255
161 199 255
161 199 255
161 199 255
161 199 255
161 199 255
161 199 255
161 199 255
161 199 255
161 199 255
161 199 255
161 199 255
161 199 255
161 199 255
161 199 255
161 199 255
161 199 255
161 199 255
161 199 255
161 199 255
161 199 255
161 199 255
161 199 255
161 199 255
161 199 255
161 199 255
161 199 255
161 199 255
162 199 255
162 199 255
162 199 255
162 199 255
162 199 255
162 200 255
162 200 255
163 200 255
163 200 255
163 200 255
163 200 255
163 200 255
164 200 255
164 200 255
164 201 255
164 201 255
164 201 255
164 201 255
165 201 255
165 201 255
165 201 255
165 201 255
166 202 255
166 202 255
166 202 255
166 202 255
166 202 255
167 202 255
167 202 255
167 202 255
167 203 255
167 203 255
168 203 255
168 203 255
168 203 255
168 203 255
169 204 255
169 203 255
169 203 255
168 203 255
168 203 255
168 203 255
168 203 255
168 203 255
167 203 255
167 202 255
167 202 255
167 202 255
167 202 255
166 202 255
166 202 255
166 202 255
166 202 255
166 202 255
165 201 255
165 201 255
165 201 255
165 201 255
165 201 255
164 201 255
164 201 255
164 201 255
164 200 255
164 200 255
163 200 255
163 200 255
163 200 255
163 200 255
163 200 255
163 200 255
163 200 255
162 200 255
162 200 255
162 200 255
162 199 255
162 199 255
162 199 255
162 199 255
162 199 255
162 199 255
162 199 255
162 199 255
162 199 255
162 199 255
162 199 255
162 199 255
162 199 255
162 199 255
162 199 255
162 199 255
162 199 255
162 199 255
162 199 255
162 199 255
162 199 255
162 199 255
162 199 255
162 199 255
162 200 255
162 200 255
162 200 255
163 200 255
163 200 255
163 200 255
163 200 255
163 200 255
163 200 255
163 200 255
164 200 255
164 200 255
164 201 255
164 201 255
164 201 255
165 201 255
165 201 255
165 201 255
165 201 255
165 201 255
166 202 255
166 202 255
166 202 255
166 202 255
166 202 255
167 202 255
167 202 255
167 202 255
167 202 255
167 203 255
168 203 255
168 203 255
168 203 255
168 203 255
168 203 255
169 203 255
169 203 255
169 204 255
170 204 255
169 204 255
169 204 255
169 204 255
169 204 255
169 203 255
169 203 255
168 203 255
168 203 255
168 203 255
168 203 255
168 203 255
167 203 255
167 202 255
167 202 255
167 202 255
167 202 255
166 202 255
166 202 255
166 202 255
166 202 255
166 202 255
165 201 255
165 201 255
165 201 255
165 201 255
165 201 255
165 201 255
164 201 255
164 201 255
164 201 255
164 201 255
164 200 255
164 200 255
163 200 255
163 200 255
163 200 255
163 200 255
163 200 255
163 200 255
163 200 255
163 200 255
163 200 255
163 200 255
163 200 255
163 200 255
162 200 255
162 200 255
162 200 255
162 200 255
162 200 255
162 200 255
162 200 255
162 200 255
163 200 255
163 200 255
163 200 255
163 200 255
163 200 255
163 200 255
163 200 255
163 200 255
163 200 255
163 200 255
163 200 255
163 200 255
164 200 255
164 200 255
164 201 255
164 201 255
164 201 255
164 201 255
165 201 255
165 201 255
165 201 255
165 201 255
165 201 255
165 201 255
166 202 255
166 202 255
166 202 255
166 202 255
166 202 255
167 202 255
167 202 255
167 202 255
167 202 255
167 203 255
168 203 255
168 203 255
168 203 255
168 203 255
168 203 255
169 203 255
169 203 255
169 204 255
169 204 255
169 204 255
169 204 255
170 204 255
170 204 255
170 204 255
170 204 255
170 204 255
170 204 255
170 204 255
169 204 255
169 204 255
169 204 255
169 203 255
169 203 255
168 203 255
168 203 255
168 203 255
168 203 255
168 203 255
167 203 255
167 203 255
167 202 255
167 202 255
167 202 255
166 202 255
166 202 255
166 202 255
166 202 255
166 202 255
166 202 255
165 201 255
165 201 255
165 201 255
165 201 255
165 201 255
165 201 255
164 201 255
164 201 255
164 201 255
164 201 255
164 201 255
164 201 255
164 200 255
164 200 255
164 200 255
164 200 255
164 200 255
163 200 255
163 200 255
163 200 255
163 200 255
163 200 255
163 200 255
163 200 255
163 200 255
163 200 255
163 200 255
163 200 255
163 200 255
164 200 255
164 200 255
164 200 255
164 200 255
164 200 255
164 201 255
164 201 255
164 201 255
164 201 255
164 201 255
164 201 255
165 201 255
165 201 255
165 201 255
165 201 255
165 201 255
165 201 255
166 202 255
166 202 255
166 202 255
166 202 255
166 202 255
166 202 255
167 202 255
167 202 255
167 202 255
167 203 255
167 203 255
168 203 255
168 203 255
168 203 255
168 203 255
168 203 255
169 203 255
169 203 255
169 204 255
169 204 255
169 204 255
170 204 255
170 204 255
170 204 255
170 204 255
170 204 255
170 204 255
171 205 255
171 205 255
171 205 255
171 205 255
170 204 255
170 204 255
170 204 255
170 204 255
170 204 255
170 204 255
169 204 255
169 204 255
169 204 255
169 203 255
169 203 255
168 203 255
168 203 255
168 203 255
168 203 255
168 203 255
167 203 255
167 203 255
167 202 255
167 202 255
167 202 255
167 202 255
166 202 255
166 202 255
166 202 255
166 202 255
166 202 255
166 202 255
166 202 255
165 201 255
165 201 255
165 201 255
165 201 255
165 201 255
165 201 255
165 201 255
165 201 255
165 201 255
165 201 255
164 201 255
164 201 255
164 201 255
164 201 255
164 201 255
164 201 255
164 201 255
164 201 255
164 201 255
164 201 255
164 201 255
164 201 255
164 201 255
164 201 255
165 201 255
165 201 255
165 201 255
165 201 255
165 201 255
165 201 255
165 201 255
165 201 255
165 201 255
165 201 255
166 202 255
166 202 255
166 202 255
166 202 255
166 202 255
166 202 255
166 202 255
167 202 255
167 202 255
167 202 255
167 202 255
167 203 255
167 203 255
168 203 255
168 203 255
168 203 255
168 203 255
168 203 255
169 203 255
169 203 255
169 204 255
169 204 255
169 204 255
170 204 255
170 204 255
170 204 255
170 204 255
170 204 255
170 204 255
171 205 255
171 205 255
171 205 255
171 205 255
172 205 255
172 205 255
172 205 255
171 205 255
171 205 255
171 205 255
171 205 255
171 205 255
171 205 255
170 204 255
170 204 255
170 204 255
170 204 255
170 204 255
169 204 255
169 204 255
169 204 255
169 204 255
169 203 255
169 203 255
168 203 255
168 203 255
168 203 255
168 203 255
168 203 255
168 203 255
167 203 255
167 203 255
167 202 255
167 202 255
167 202 255
167 202 255
166 202 255
166 202 255
166 202 255
166 202 255
166 202 255
166 202 255
166 202 255
166 202 255
166 202 255
166 202 255
165 201 255
165 201 255
165 201 255
165 201 255
165 201 255
165 201 255
165 201 255
165 201 255
165 201 255
165 201 255
165 201 255
165 201 255
165 201 255
165 201 255
165 201 255
165 201 255
166 202 255
166 202 255
166 202 255
166 202 255
166 202 255
166 202 255
166 202 255
166 202 255
166 202 255
166 202 255
167 202 255
167 202 255
167 202 255
167 202 255
167 203 255
167 203 255
168 203 255
168 203 255
168 203 255
168 203 255
168 203 255
168 203 255
169 203 255
169 203 255
169 204 255
169 204 255
169 204 255
169 204 255
170 204 255
170 204 255
170 204 255
170 204 255
170 204 255
171 205 255
171 205 255
171 205 255
171 205 255
171 205 255
171 205 255
172 205 255
172 205 255
172 205 255
173 206 255
173 206 255
172 206 255
172 206 255
172 205 255
172 205 255
172 205 255
172 205 255
171 205 255
171 205 255
171 205 255
171 205 255
171 205 255
171 205 255
170 204 255
170 204 255
170 204 255
170 204 255
170 204 255
169 204 255
169 204 255
169 204 255
169 204 255
169 203 255
169 203 255
168 203 255
168 203 255
168 203 255
168 203 255
168 203 255
168 203 255
168 203 255
167 203 255
167 203 255
167 203 255
167 202 255
167 202 255
167 202 255
167 202 255
167 202 255
167 202 255
167 202 255
166 202 255
166 202 255
166 202 255
166 202 255
166 202 255
166 202 255
166 202 255
166 202 255
166 202 255
166 202 255
166 202 255
166 202 255
166 202 255
166 202 255
166 202 255
166 202 255
167 202 255
167 202 255
167 202 255
167 202 255
167 202 255
167 202 255
167 202 255
167 203 255
167 203 255
167 203 255
168 203 255
168 203 255
168 203 255
168 203 255
168 203 255
168 203 255
168 203 255
169 203 255
169 203 255
169 204 255
169 204 255
169 204 255
169 204 255
170 204 255
170 204 255
170 204 255
170 204 255
170 204 255
171 205 255
171 205 255
171 205 255
171 205 255
171 205 255
171 205 255
172 205 255
172 205 255
172 205 255
172 205 255
172 206 255
172 206 255
173 206 255
173 206 255
174 206 255
173 206 255
173 206 255
173 206 255
173 206 255
173 206 255
173 206 255
172 206 255
172 206 255
172 205 255
172 205 255
172 205 255
172 205 255
171 205 255
171 205 255
171 205 255
171 205 255
171 205 255
171 205 255
170 204 255
170 204 255
170 204 255
170 204 255
170 204 255
170 204 255
169 204 255
169 204 255
169 204 255
169 204 255
169 203 255
169 203 255
169 203 255
168 203 255
168 203 255
168 203 255
168 203 255
168 203 255
168 203 255
168 203 255
168 203 255
168 203 255
168 203 255
167 203 255
167 203 255
167 203 255
167 203 255
167 203 255
167 203 255
167 203 255
167 203 255
167 203 255
167 203 255
167 203 255
167 203 255
167 203 255
167 203 255
167 203 255
167 203 255
168 203 255
168 203 255
168 203 255
168 203 255
168 203 255
168 203 255
168 203 255
168 203 255
168 203 255
168 203 255
169 203 255
169 203 255
169 203 255
169 204 255
169 204 255
169 204 255
169 204 255
170 204 255
170 204 255
170 204 255
170 204 255
170 204 255
170 204 255
171 205 255
171 205 255
171 205 255
171 205 255
171 205 255
171 205 255
172 205 255
172 205 255
172 205 255
172 205 255
172 206 255
172 206 255
173 206 255
173 206 255
173 206 255
173 206 255
173 206 255
173 206 255
174 206 255
174 207 255
174 207 255
174 207 255
174 207 255
174 206 255
174 206 255
173 206 255
173 206 255
173 206 255
173 206 255
173 206 255
173 206 255
172 206 255
172 206 255
172 205 255
172 205 255
172 205 255
172 205 255
171 205 255
171 205 255
171 205 255
171 205 255
171 205 255
171 205 255
170 204 255
170 204 255
170 204 255
170 204 255
170 204 255
170 204 255
170 204 255
170 204 255
169 204 255
169 204 255
169 204 255
169 204 255
169 204 255
169 204 255
169 203 255
169 203 255
169 203 255
169 203 255
168 203 255
168 203 255
168 203 255
168 203 255
168 203 255
168 203 255
168 203 255
168 203 255
168 203 255
168 203 255
168 203 255
168 203 255
168 203 255
168 203 255
168 203 255
168 203 255
169 203 255
169 203 255
169 203 255
169 203 255
169 204 255
169 204 255
169 204 255
169 204 255
169 204 255
169 204 255
170 204 255
170 204 255
170 204 255
170 204 255
170 204 255
170 204 255
170 204 255
170 204 255
171 205 255
171 205 255
171 205 255
171 205 255
171 205 255
171 205 255
172 205 255
172 205 255
172 205 255
172 205 255
172 206 255
172 206 255
173 206 255
173 206 255
173 206 255
173 206 255
173 206 255
173 206 255
174 206 255
174 206 255
174 207 255
174 207 255
174 207 255
174 207 255
175 207 255
175 207 255
175 207 255
175 207 255
175 207 255
174 207 255
174 207 255
174 207 255
174 207 255
174 206 255
174 206 255
173 206 255
173 206 255
173 206 255
173 206 255
173 206 255
173 206 255
173 206 255
172 206 255
172 206 255
172 205 255
172 205 255
172 205 255
172 205 255
171 205 255
171 205 255
171 205 255
171 205 255
171 205 255
171 205 255
171 205 255
171 205 255
170 204 255
170 204 255
170 204 255
170 204 255
170 204 255
170 204 255
170 204 255
170 204 255
170 204 255
170 204 255
170 204 255
169 204 255
169 204 255
169 204 255
169 204 255
169 204 255
169 204 255
169 204 255
169 204 255
169 204 255
169 204 255
169 204 255
169 204 255
169 204 255
169 204 255
170 204 255
170 204 255
170 204 255
170 204 255
170 204 255
170 204 255
170 204 255
170 204 255
170 204 255
170 204 255
170 204 255
171 205 255
171 205 255
171 205 255
171 205 255
171 205 255
171 205 255
171 205 255
171 205 255
172 205 255
172 205 255
172 205 255
172 205 255
172 206 255
172 206 255
173 206 255
173 206 255
173 206 255
173 206 255
173 206 255
173 206 255
173 206 255
174 206 255
174 206 255
174 207 255
174 207 255
174 207 255
174 207 255
175 207 255
175 207 255
175 207 255
175 207 255
175 207 255
176 208 255
176 208 255
176 208 255
176 208 255
175 207 255
175 207 255
175 207 255
175 207 255
175 207 255
175 207 255
175 207 255
174 207 255
174 207 255
174 207 255
174 207 255
174 206 255
174 206 255
173 206 255
173 206 255
173 206 255
173 206 255
173 206 255
173 206 255
173 206 255
172 206 255
172 206 255
172 206 255
172 205 255
172 205 255
172 205 255
172 205 255
172 205 255
171 205 255
171 205 255
171 205 255
171 205 255
171 205 255
171 205 255
171 205 255
171 205 255
171 205 255
171 205 255
171 205 255
171 205 255
170 204 255
170 204 255
170 204 255
170 204 255
170 204 255
170 204 255
170 204 255
170 204 255
170 204 255
170 204 255
170 204 255
170 204 255
171 205 255
171 205 255
171 205 255
171 205 255
171 205 255
171 205 255
171 205 255
171 205 255
171 205 255
171 205 255
171 205 255
171 205 255
172 205 255
172 205 255
172 205 255
172 205 255
172 205 255
172 206 255
172 206 255
172 206 255
173 206 255
173 206 255
173 206 255
173 206 255
173 206 255
173 206 255
173 206 255
174 206 255
174 206 255
174 207 255
174 207 255
174 207 255
174 207 255
175 207 255
175 207 255
175 207 255
175 207 255
175 207 255
175 207 255
175 207 255
176 208 255
176 208 255
176 208 255
176 208 255
177 208 255
177 208 255
177 208 255
176 208 255
176 208 255
176 208 255
176 208 255
176 208 255
176 208 255
176 208 255
175 207 255
175 207 255
175 207 255
175 207 255
175 207 255
175 207 255
175 207 255
174 207 255
174 207 255
174 207 255
174 207 255
174 207 255
174 206 255
174 206 255
173 206 255
173 206 255
173 206 255
173 206 255
173 206 255
173 206 255
173 206 255
173 206 255
172 206 255
172 206 255
172 206 255
172 205 255
172 205 255
172 205 255
172 205 255
172 205 255
172 205 255
172 205 255
172 205 255
172 205 255
172 205 255
172 205 255
171 205 255
171 205 255
171 205 255
171 205 255
171 205 255
171 205 255
171 205 255
171 205 255
172 205 255
172 205 255
172 205 255
172 205 255
172 205 255
172 205 255
172 205 255
172 205 255
172 205 255
172 205 255
172 205 255
172 206 255
172 206 255
172 206 255
173 206 255
173 206 255
173 206 255
173 206 255
173 206 255
173 206 255
173 206 255
173 206 255
174 206 255
174 206 255
174 207 255
174 207 255
174 207 255
174 207 255
174 207 255
175 207 255
175 207 255
175 207 255
175 207 255
175 207 255
175 207 255
175 207 255
176 208 255
176 208 255
176 208 255
176 208 255
176 208 255
176 208 255
176 208 255
177 208 255
177 208 255
177 208 255
178 209 255
178 209 255
177 209 255
177 209 255
177 209 255
177 208 255
177 208 255
177 208 255
177 208 255
177 208 255
176 208 255
176 208 255
176 208 255
176 208 255
176 208 255
176 208 255
176 208 255
175 207 255
175 207 255
175 207 255
175 207 255
175 207 255
175 207 255
175 207 255
174 207 255
174 207 255
174 207 255
174 207 255
174 207 255
174 207 255
174 206 255
174 206 255
174 206 255
173 206 255
173 206 255
173 206 255
173 206 255
173 206 255
173 206 255
173 206 255
173 206 255
173 206 255
173 206 255
173 206 255
173 206 255
173 206 255
173 206 255
173 206 255
173 206 255
173 206 255
173 206 255
173 206 255
173 206 255
173 206 255
173 206 255
173 206 255
173 206 255
173 206 255
173 206 255
173 206 255
173 206 255
173 206 255
173 206 255
173 206 255
173 206 255
173 206 255
173 206 255
174 206 255
174 206 255
174 206 255
174 207 255
174 207 255
174 207 255
174 207 255
174 207 255
174 207 255
175 207 255
175 207 255
175 207 255
175 207 255
175 207 255
175 207 255
175 207 255
176 208 255
176 208 255
176 208 255
176 208 255
176 208 255
176 208 255
176 208 255
177 208 255
177 208 255
177 208 255
177 208 255
177 208 255
177 209 255
177 209 255
177 209 255
178 209 255
178 209 255
179 209 255
178 209 255
178 209 255
178 209 255
178 209 255
178 209 255
178 209 255
178 209 255
178 209 255
177 209 255
177 209 255
177 208 255
177 208 255
177 208 255
177 208 255
177 208 255
177 208 255
176 208 255
176 208 255
176 208 255
176 208 255
176 208 255
176 208 255
176 208 255
175 207 255
175 207 255
175 207 255
175 207 255
175 207 255
175 207 255
175 207 255
175 207 255
175 207 255
175 207 255
174 207 255
174 207 255
174 207 255
174 207 255
174 207 255
174 207 255
174 207 255
174 207 255
174 207 255
174 206 255
174 206 255
174 206 255
174 206 255
174 206 255
174 206 255
174 206 255
174 206 255
174 206 255
174 206 255
174 206 255
174 206 255
174 206 255
174 206 255
174 207 255
174 207 255
174 207 255
174 207 255
174 207 255
174 207 255
174 207 255
174 207 255
174 207 255
175 207 255
175 207 255
175 207 255
175 207 255
175 207 255
175 207 255
175 207 255
175 207 255
175 207 255
175 207 255
176 208 255
176 208 255
176 208 255
176 208 255
176 208 255
176 208 255
176 208 255
177 208 255
177 208 255
177 208 255
177 208 255
177 208 255
177 208 255
177 209 255
177 209 255
178 209 255
178 209 255
178 209 255
178 209 255
178 209 255
178 209 255
178 209 255
178 209 255
179 209 255
179 210 255
179 210 255
179 210 255
179 210 255
179 210 255
179 210 255
179 209 255
179 209 255
178 209 255
178 209 255
178 209 255
178 209 255
178 209 255
178 209 255
178 209 255
178 209 255
177 209 255
177 209 255
177 209 255
177 208 255
177 208 255
177 208 255
177 208 255
177 208 255
177 208 255
176 208 255
176 208 255
176 208 255
176 208 255
176 208 255
176 208 255
176 208 255
176 208 255
176 208 255
176 208 255
175 207 255
175 207 255
175 207 255
175 207 255
175 207 255
175 207 255
175 207 255
175 207 255
175 207 255
175 207 255
175 207 255
175 207 255
175 207 255
175 207 255
175 207 255
175 207 255
175 207 255
175 207 255
175 207 255
175 207 255
175 207 255
175 207 255
175 207 255
175 207 255
175 207 255
175 207 255
175 207 255
175 207 255
175 207 255
175 207 255
176 208 255
176 208 255
176 208 255
176 208 255
176 208 255
176 208 255
176 208 255
176 208 255
176 208 255
176 208 255
177 208 255
177 208 255
177 208 255
177 208 255
177 208 255
177 208 255
177 209 255
177 209 255
177 209 255
178 209 255
178 209 255
178 209 255
178 209 255
178 209 255
178 209 255
178 209 255
178 209 255
179 209 255
179 209 255
179 210 255
179 210 255
179 210 255
179 210 255
179 210 255
179 210 255
180 210 255
180 210 255
180 210 255
180 210 255
180 210 255
180 210 255
180 210 255
180 210 255
179 210 255
179 210 255
179 210 255
179 210 255
179 210 255
179 209 255
179 209 255
179 209 255
178 209 255
178 209 255
178 209 255
178 209 255
178 209 255
178 209 255
178 209 255
178 209 255
178 209 255
177 209 255
177 209 255
177 209 255
177 209 255
177 208 255
177 208 255
177 208 255
177 208 255
177 208 255
177 208 255
177 208 255
176 208 255
176 208 255
176 208 255
176 208 255
176 208 255
176 208 255
176 208 255
176 208 255
176 208 255
176 208 255
176 208 255
176 208 255
176 208 255
176 208 255
176 208 255
176 208 255
176 208 255
176 208 255
176 208 255
176 208 255
176 208 255
176 208 255
176 208 255
176 208 255
176 208 255
176 208 255
176 208 255
176 208 255
177 208 255
177 208 255
177 208 255
177 208 255
177 208 255
177 208 255
177 208 255
177 209 255
177 209 255
177 209 255
177 209 255
178 209 255
178 209 255
178 209 255
178 209 255
178 209 255
178 209 255
178 209 255
178 209 255
178 209 255
179 209 255
179 209 255
179 209 255
179 210 255
179 210 255
179 210 255
179 210 255
179 210 255
180 210 255
180 210 255
180 210 255
180 210 255
180 210 255
180 210 255
180 210 255
180 210 255
181 211 255
181 211 255
181 211 255
181 211 255
181 211 255
181 211 255
181 211 255
180 210 255
180 210 255
180 210 255
180 210 255
180 210 255
180 210 255
180 210 255
180 210 255
180 210 255
179 210 255
179 210 255
179 210 255
179 210 255
179 210 255
179 210 255
179 210 255
179 209 255
179 209 255
179 209 255
178 209 255
178 209 255
178 209 255
178 209 255
178 209 255
178 209 255
178 209 255
178 209 255
178 209 255
178 209 255
178 209 255
178 209 255
178 209 255
177 209 255
177 209 255
177 209 255
177 209 255
177 209 255
177 209 255
177 209 255
177 209 255
177 209 255
177 208 255
177 208 255
177 208 255
177 208 255
177 209 255
177 209 255
177 209 255
177 209 255
177 209 255
177 209 255
177 209 255
177 209 255
177 209 255
178 209 255
178 209 255
178 209 255
178 209 255
178 209 255
178 209 255
178 209 255
178 209 255
178 209 255
178 209 255
178 209 255
178 209 255
178 209 255
179 209 255
179 209 255
179 209 255
179 210 255
179 210 255
179 210 255
179 210 255
179 210 255
179 210 255
179 210 255
180 210 255
180 210 255
180 210 255
180 210 255
180 210 255
180 210 255
180 210 255
180 210 255
180 210 255
181 211 255
181 211 255
181 211 255
181 211 255
181 211 255
181 211 255
181 211 255
182 211 255
182 211 255
182 211 255
182 211 255
182 211 255
182 211 255
181 211 255
181 211 255
181 211 255
181 211 255
181 211 255
181 211 255
181 211 255
181 211 255
181 211 255
181 211 255
180 210 255
180 210 255
180 210 255
180 210 255
180 210 255
180 210 255
180 210 255
180 210 255
180 210 255
180 210 255
180 210 255
179 210 255
179 210 255
179 210 255
179 210 255
179 210 255
179 210 255
179 210 255
179 210 255
179 210 255
179 209 255
179 209 255
179 209 255
179 209 255
179 209 255
179 209 255
178 209 255
178 209 255
178 209 255
178 209 255
178 209 255
178 209 255
178 209 255
178 209 255
178 209 255
178 209 255
178 209 255
178 209 255
178 209 255
178 209 255
178 209 255
178 209 255
179 209 255
179 209 255
179 209 255
179 209 255
179 209 255
179 209 255
179 210 255
179 210 255
179 210 255
179 210 255
179 210 255
179 210 255
179 210 255
179 210 255
179 210 255
180 210 255
180 210 255
180 210 255
180 210 255
180 210 255
180 210 255
180 210 255
180 210 255
180 210 255
180 210 255
180 210 255
181 211 255
181 211 255
181 211 255
181 211 255
181 211 255
181 211 255
181 211 255
181 211 255
181 211 255
181 211 255
182 211 255
182 211 255
182 211 255
182 211 255
182 211 255
182 211 255
183 212 255
183 212 255
183 212 255
183 212 255
183 212 255
183 212 255
182 212 255
182 212 255
182 212 255
182 211 255
182 211 255
182 211 255
182 211 255
182 211 255
182 211 255
182 211 255
182 211 255
181 211 255
181 211 255
181 211 255
181 211 255
181 211 255
181 211 255
181 211 255
181 211 255
181 211 255
181 211 255
181 211 255
180 210 255
180 210 255
180 210 255
180 210 255
180 210 255
180 210 255
180 210 255
180 210 255
180 210 255
180 210 255
180 210 255
180 210 255
180 210 255
180 210 255
180 210 255
180 210 255
180 210 255
180 210 255
180 210 255
180 210 255
180 210 255
180 210 255
180 210 255
180 210 255
180 210 255
180 210 255
180 210 255
180 210 255
180 210 255
180 210 255
180 210 255
180 210 255
180 210 255
180 210 255
180 210 255
180 210 255
180 210 255
180 210 255
180 210 255
180 210 255
180 210 255
180 210 255
180 210 255
180 210 255
181 211 255
181 211 255
181 211 255
181 211 255
181 211 255
181 211 255
181 211 255
181 211 255
181 211 255
181 211 255
181 211 255
182 211 255
182 211 255
182 211 255
182 211 255
182 211 255
182 211 255
182 211 255
182 211 255
182 212 255
182 212 255
182 212 255
183 212 255
183 212 255
183 212 255
183 212 255
183 212 255
183 212 255
184 212 255
184 212 255
184 212 255
184 212 255
184 212 255
183 212 255
183 212 255
183 212 255
183 212 255
183 212 255
183 212 255
183 212 255
183 212 255
183 212 255
183 212 255
183 212 255
183 212 255
182 212 255
182 212 255
182 212 255
182 212 255
182 211 255
182 211 255
182 211 255
182 211 255
182 211 255
182 211 255
182 211 255
182 211 255
182 211 255
181 211 255
181 211 255
181 211 255
181 211 255
181 211 255
181 211 255
181 211 255
181 211 255
181 211 255
181 211 255
181 211 255
181 211 255
181 211 255
181 211 255
181 211 255
181 211 255
181 211 255
181 211 255
181 211 255
181 211 255
181 211 255
181 211 255
181 211 255
181 211 255
181 211 255
181 211 255
181 211 255
181 211 255
181 211 255
181 211 255
181 211 255
181 211 255
181 211 255
181 211 255
181 211 255
181 211 255
181 211 255
181 211 255
181 211 255
181 211 255
182 211 255
182 211 255
182 211 255
182 211 255
182 211 255
182 211 255
182 211 255
182 211 255
182 211 255
182 212 255
182 212 255
182 212 255
182 212 255
183 212 255
183 212 255
183 212 255
183 212 255
183 212 255
183 212 255
183 212 255
183 212 255
183 212 255
183 212 255
183 212 255
183 212 255
184 212 255
184 212 255
184 212 255
184 212 255
184 212 255
185 213 255
185 213 255
185 213 255
185 213 255
184 213 255
184 213 255
184 213 255
184 213 255
184 213 255
184 213 255
184 213 255
184 213 255
184 213 255
184 212 255
184 212 255
184 212 255
184 212 255
184 212 255
183 212 255
183 212 255
183 212 255
183 212 255
183 212 255
183 212 255
183 212 255
183 212 255
183 212 255
183 212 255
183 212 255
183 212 255
183 212 255
183 212 255
183 212 255
182 212 255
182 212 255
182 212 255
182 212 255
182 212 255
182 212 255
182 212 255
182 212 255
182 211 255
182 211 255
182 211 255
182 211 255
182 211 255
182 211 255
182 211 255
182 211 255
182 211 255
182 211 255
182 211 255
182 211 255
182 211 255
182 211 255
182 211 255
182 211 255
182 211 255
182 211 255
182 212 255
182 212 255
182 212 255
182 212 255
182 212 255
182 212 255
182 212 255
182 212 255
183 212 255
183 212 255
183 212 255
183 212 255
183 212 255
183 212 255
183 212 255
183 212 255
183 212 255
183 212 255
183 212 255
183 212 255
183 212 255
183 212 255
183 212 255
184 212 255
184 212 255
184 212 255
184 212 255
184 212 255
184 213 255
184 213 255
184 213 255
184 213 255
184 213 255
184 213 255
184 213 255
184 213 255
184 213 255
185 213 255
185 213 255
185 213 255
185 213 255
186 214 255
186 214 255
185 213 255
185 213 255
185 213 255
185 213 255
185 213 255
185 213 255
185 213 255
185 213 255
185 213 255
185 213 255
185 213 255
185 213 255
185 213 255
185 213 255
185 213 255
185 213 255
185 213 255
184 213 255
184 213 255
184 213 255
184 213 255
184 213 255
184 213 255
184 213 255
184 213 255
184 213 255
184 213 255
184 213 255
184 212 255
184 212 255
184 212 255
184 212 255
184 212 255
184 212 255
184 212 255
183 212 255
183 212 255
183 212 255
183 212 255
183 212 255
183 212 255
183 212 255
183 212 255
183 212 255
183 212 255
183 212 255
183 212 255
183 212 255
183 212 255
183 212 255
183 212 255
183 212 255
183 212 255
183 212 255
183 212 255
183 212 255
183 212 255
183 212 255
183 212 255
183 212 255
183 212 255
184 212 255
184 212 255
184 212 255
184 212 255
184 212 255
184 212 255
184 212 255
184 213 255
184 213 255
184 213 255
184 213 255
184 213 255
184 213 255
184 213 255
184 213 255
184 213 255
184 213 255
184 213 255
185 213 255
185 213 255
185 213 255
185 213 255
185 213 255
185 213 255
185 213 255
185 213 255
185 213 255
185 213 255
185 213 255
185 213 255
185 213 255
185 213 255
185 213 255
185 213 255
185 213 255
186 214 255
186 214 255
187 214 255
186 214 255
186 214 255
186 214 255
186 214 255
186 214 255
186 214 255
186 214 255
186 214 255
186 214 255
186 214 255
186 214 255
186 214 255
186 214 255
186 214 255
186 214 255
186 214 255
186 214 255
186 214 255
186 214 255
185 213 255
185 213 255
185 213 255
185 213 255
185 213 255
185 213 255
185 213 255
185 213 255
185 213 255
185 213 255
185 213 255
185 213 255
185 213 255
185 213 255
185 213 255
185 213 255
185 213 255
185 213 255
185 213 255
185 213 255
185 213 255
185 213 255
185 213 255
185 213 255
185 213 255
185 213 255
185 213 255
185 213 255
185 213 255
185 213 255
185 213 255
185 213 255
185 213 255
185 213 255
185 213 255
185 213 255
185 213 255
185 213 255
185 213 255
185 213 255
185 213 255
185 213 255
185 213 255
185 213 255
185 213 255
185 213 255
185 213 255
185 213 255
185 213 255
185 213 255
185 213 255
185 213 255
185 213 255
185 213 255
185 213 255
185 213 255
185 213 255
185 213 255
185 213 255
185 213 255
186 214 255
186 214 255
186 214 255
186 214 255
186 214 255
186 214 255
186 214 255
186 214 255
186 214 255
186 214 255
186 214 255
186 214 255
186 214 255
186 214 255
186 214 255
186 214 255
186 214 255
186 214 255
186 214 255
187 214 255
187 215 255
187 215 255
187 215 255
187 215 255
187 215 255
187 215 255
187 214 255
187 214 255
187 214 255
187 214 255
187 214 255
187 214 255
187 214 255
187 214 255
187 214 255
187 214 255
187 214 255
187 214 255
187 214 255
187 214 255
187 214 255
187 214 255
186 214 255
186 214 255
186 214 255
186 214 255
186 214 255
186 214 255
186 214 255
186 214 255
186 214 255
186 214 255
186 214 255
186 214 255
186 214 255
186 214 255
186 214 255
186 214 255
186 214 255
186 214 255
186 214 255
186 214 255
186 214 255
186 214 255
186 214 255
186 214 255
186 214 255
186 214 255
91 238 181
115 237 193
140 237 193
164 238 181
186 214 255
186 214 255
186 214 255
186 214 255
186 214 255
186 214 255
186 214 255
186 214 255
186 214 255
186 214 255
186 214 255
186 214 255
186 214 255
186 214 255
186 214 255
186 214 255
186 214 255
186 214 255
186 214 255
186 214 255
186 214 255
186 214 255
186 214 255
186 214 255
186 214 255
186 214 255
187 214 255
187 214 255
187 214 255
187 214 255
187 214 255
187 214 255
187 214 255
187 214 255
187 214 255
187 214 255
187 214 255
187 214 255
187 214 255
187 214 255
187 214 255
187 214 255
187 215 255
187 215 255
187 215 255
187 215 255
187 215 255
187 215 255
188 215 255
188 215 255
188 215 255
188 215 255
188 215 255
188 215 255
188 215 255
188 215 255
188 215 255
188 215 255
188 215 255
188 215 255
188 215 255
188 215 255
188 215 255
188 215 255
188 215 255
188 215 255
188 215 255
188 215 255
188 215 255
188 215 255
188 215 255
188 215 255
188 215 255
187 215 255
187 215 255
187 215 255
187 215 255
187 215 255
187 215 255
187 215 255
187 215 255
187 215 255
187 215 255
187 215 255
187 215 255
187 214 255
187 214 255
187 214 255
187 214 255
187 214 255
187 214 255
187 214 255
187 214 255
187 214 255
40 215 162
67 212 203
92 211 218
116 210 224
139 210 224
163 211 218
188 212 203
215 215 162
187 214 255
187 214 255
187 214 255
187 214 255
187 214 255
187 214 255
187 214 255
187 214 255
187 214 255
187 215 255
187 215 255
187 215 255
187 215 255
187 215 255
187 215 255
187 215 255
187 215 255
187 215 255
187 215 255
187 215 255
187 215 255
188 215 255
188 215 255
188 215 255
188 215 255
188 215 255
188 215 255
188 215 255
188 215 255
188 215 255
188 215 255
188 215 255
188 215 255
188 215 255
188 215 255
188 215 255
188 215 255
188 215 255
188 215 255
188 215 255
188 215 255
188 215 255
188 215 255
188 215 255
188 215 255
188 215 255
189 216 255
189 216 255
189 216 255
189 216 255
189 216 255
189 216 255
189 216 255
189 216 255
189 216 255
189 216 255
189 216 255
189 216 255
189 216 255
189 216 255
189 216 255
189 216 255
189 216 255
189 215 255
189 215 255
189 215 255
189 215 255
189 215 255
189 215 255
189 215 255
189 215 255
189 215 255
189 215 255
189 215 255
189 215 255
189 215 255
189 215 255
189 215 255
188 215 255
188 215 255
188 215 255
188 215 255
188 215 255
188 215 255
188 215 255
188 215 255
188 215 255
188 215 255
188 215 255
188 215 255
188 215 255
188 215 255
43 188 203
68 187 224
92 186 236
116 186 241
139 186 241
163 186 236
187 187 224
212 188 203
188 215 255
188 215 255
188 215 255
188 215 255
188 215 255
188 215 255
188 215 255
188 215 255
188 215 255
188 215 255
188 215 255
188 215 255
188 215 255
188 215 255
189 215 255
189 215 255
189 215 255
189 215 255
189 215 255
189 215 255
189 215 255
189 215 255
189 215 255
189 215 255
189 215 255
189 215 255
189 215 255
189 215 255
189 215 255
189 216 255
189 216 255
189 216 255
189 216 255
189 216 255
189 216 255
189 216 255
189 216 255
189 216 255
189 216 255
189 216 255
189 216 255
189 216 255
189 216 255
189 216 255
189 216 255
189 216 255
190 216 255
190 216 255
190 216 255
190 216 255
190 216 255
190 216 255
190 216 255
190 216 255
190 216 255
190 216 255
190 216 255
190 216 255
190 216 255
190 216 255
190 216 255
190 216 255
190 216 255
190 216 255
190 216 255
190 216 255
190 216 255
190 216 255
190 216 255
190 216 255
190 216 255
190 216 255
190 216 255
190 216 255
190 216 255
190 216 255
190 216 255
190 216 255
190 216 255
190 216 255
190 216 255
190 216 255
190 216 255
190 216 255
190 216 255
190 216 255
190 216 255
190 216 255
190 216 255
190 216 255
190 216 255
17 164 181
44 163 218
69 163 236
93 162 246
116 162 250
139 162 250
162 162 246
186 163 236
211 163 218
238 164 181
190 216 255
190 216 255
190 216 255
190 216 255
190 216 255
190 216 255
190 216 255
190 216 255
190 216 255
190 216 255
190 216 255
190 216 255
190 216 255
190 216 255
190 216 255
190 216 255
190 216 255
190 216 255
190 216 255
190 216 255
190 216 255
190 216 255
190 216 255
190 216 255
190 216 255
190 216 255
190 216 255
190 216 255
190 216 255
190 216 255
190 216 255
190 216 255
190 216 255
190 216 255
190 216 255
190 216 255
190 216 255
190 216 255
190 216 255
190 216 255
190 216 255
190 216 255
190 216 255
190 216 255
190 216 255
191 217 255
191 217 255
191 217 255
191 217 255
191 217 255
191 217 255
191 217 255
191 217 255
191 217 255
191 217 255
191 217 255
191 217 255
191 217 255
191 217 255
191 217 255
191 217 255
191 217 255
191 217 255
191 217 255
191 217 255
191 217 255
191 217 255
191 217 255
191 217 255
191 217 255
191 217 255
191 217 255
191 217 255
191 217 255
191 217 255
191 217 255
191 217 255
191 217 255
191 217 255
191 217 255
191 217 255
191 217 255
191 217 255
191 217 255
191 217 255
191 217 255
191 217 255
191 217 255
191 217 255
191 217 255
18 140 193
45 139 224
69 139 241
93 139 250
116 139 254
139 139 254
162 139 250
186 139 241
210 139 224
237 140 193
191 217 255
191 217 255
191 217 255
191 217 255
191 217 255
191 217 255
191 217 255
191 217 255
191 217 255
191 217 255
191 217 255
191 217 255
191 217 255
191 217 255
191 217 255
191 217 255
191 217 255
191 217 255
191 217 255
191 217 255
191 217 255
191 217 255
191 217 255
191 217 255
191 217 255
191 217 255
191 217 255
191 217 255
191 217 255
191 217 255
191 217 255
191 217 255
191 217 255
191 217 255
191 217 255
191 217 255
191 217 255
191 217 255
191 217 255
191 217 255
191 217 255
191 217 255
191 217 255
191 217 255
191 217 255
192 217 255
192 217 255
192 217 255
192 217 255
192 217 255
192 217 255
192 217 255
192 217 255
192 217 255
192 217 255
192 217 255
192 217 255
192 217 255
192 217 255
192 217 255
192 217 255
192 217 255
192 217 255
192 217 255
192 217 255
192 217 255
192 217 255
192 217 255
192 217 255
192 217 255
192 217 255
192 217 255
192 217 255
192 217 255
192 217 255
192 217 255
192 217 255
192 217 255
192 217 255
192 217 255
192 217 255
192 217 255
192 217 255
192 217 255
192 217 255
192 217 255
192 217 255
192 217 255
192 217 255
192 217 255
18 115 193
45 116 224
69 116 241
93 116 250
116 116 254
139 116 254
162 116 250
186 116 241
210 116 224
237 115 193
192 217 255
192 217 255
192 217 255
192 217 255
192 217 255
192 217 255
192 217 255
192 217 255
192 217 255
192 217 255
192 217 255
192 217 255
192 217 255
192 217 255
192 217 255
192 217 255
192 217 255
192 217 255
192 217 255
192 217 255
192 217 255
192 217 255
192 217 255
192 217 255
192 217 255
192 217 255
192 217 255
192 217 255
192 217 255
192 217 255
192 217 255
192 217 255
192 217 255
192 217 255
192 217 255
192 217 255
192 217 255
192 217 255
192 217 255
192 217 255
192 217 255
192 217 255
192 217 255
192 217 255
192 217 255
193 218 255
193 218 255
193 218 255
193 218 255
193 218 255
193 218 255
193 218 255
193 218 255
193 218 255
193 218 255
193 218 255
193 218 255
193 218 255
193 218 255
193 218 255
193 218 255
193 218 255
193 218 255
193 218 255
193 218 255
193 218 255
193 218 255
193 218 255
193 218 255
193 218 255
193 218 255
193 218 255
193 218 255
193 218 255
193 218 255
193 218 255
193 218 255
193 218 255
193 218 255
193 218 255
193 218 255
193 218 255
193 218 255
193 218 255
193 218 255
193 218 255
193 218 255
193 218 255
193 218 255
193 218 255
17 91 181
44 92 218
69 92 236
93 93 246
116 93 250
139 93 250
162 93 246
186 92 236
211 92 218
238 91 181
193 218 255
193 218 255
193 218 255
193 218 255
193 218 255
193 218 255
193 218 255
193 218 255
193 218 255
193 218 255
193 218 255
193 218 255
193 218 255
193 218 255
193 218 255
193 218 255
193 218 255
193 218 255
193 218 255
193 218 255
193 218 255
193 218 255
193 218 255
193 218 255
193 218 255
193 218 255
193 218 255
193 218 255
193 218 255
193 218 255
193 218 255
193 218 255
193 218 255
193 218 255
193 218 255
193 218 255
193 218 255
193 218 255
193 218 255
193 218 255
193 218 255
193 218 255
193 218 255
193 218 255
193 218 255
194 218 255
194 218 255
194 218 255
194 219 255
194 219 255
194 219 255
194 219 255
194 219 255
194 219 255
194 219 255
194 219 255
194 219 255
194 219 255
194 219 255
194 219 255
194 219 255
194 219 255
194 219 255
194 219 255
194 219 255
194 219 255
194 219 255
194 219 255
194 219 255
194 219 255
194 219 255
194 219 255
194 219 255
194 219 255
194 219 255
194 219 255
194 219 255
195 219 255
195 219 255
195 219 255
195 219 255
195 219 255
195 219 255
195 219 255
195 219 255
195 219 255
195 219 255
195 219 255
195 219 255
195 219 255
195 219 255
43 67 203
68 68 224
92 69 236
116 69 241
139 69 241
163 69 236
187 68 224
212 67 203
195 219 255
195 219 255
195 219 255
195 219 255
195 219 255
195 219 255
195 219 255
195 219 255
195 219 255
195 219 255
195 219 255
195 219 255
195 219 255
195 219 255
194 219 255
194 219 255
194 219 255
194 219 255
194 219 255
194 219 255
194 219 255
194 219 255
194 219 255
194 219 255
194 219 255
194 219 255
194 219 255
194 219 255
194 219 255
194 219 255
194 219 255
194 219 255
194 219 255
194 219 255
194 219 255
194 219 255
194 219 255
194 219 255
194 219 255
194 219 255
194 219 255
194 219 255
194 219 255
194 218 255
194 218 255
194 218 255
195 219 255
195 219 255
195 219 255
195 219 255
195 219 255
195 219 255
195 219 255
195 219 255
195 219 255
195 219 255
195 219 255
195 219 255
195 219 255
195 219 255
195 219 255
195 219 255
195 219 255
195 219 255
195 219 255
195 219 255
195 219 255
195 219 255
195 219 255
195 219 255
195 219 255
196 220 255
196 220 255
196 220 255
196 220 255
196 220 255
196 220 255
196 220 255
196 220 255
196 220 255
196 220 255
196 220 255
196 220 255
196 220 255
196 220 255
196 220 255
196 220 255
196 220 255
196 220 255
196 220 255
196 220 255
196 220 255
40 40 162
67 43 203
92 44 218
116 45 224
139 45 224
163 44 218
188 43 203
215 40 162
196 220 255
196 220 255
196 220 255
196 220 255
196 220 255
196 220 255
196 220 255
196 220 255
196 220 255
196 220 255
196 220 255
196 220 255
196 220 255
196 220 255
196 220 255
196 220 255
196 220 255
196 220 255
196 220 255
196 220 255
196 220 255
195 219 255
195 219 255
195 219 255
195 219 255
195 219 255
195 219 255
195 219 255
195 219 255
195 219 255
195 219 255
195 219 255
195 219 255
195 219 255
195 219 255
195 219 255
195 219 255
195 219 255
195 219 255
195 219 255
195 219 255
195 219 255
195 219 255
195 219 255
195 219 255
195 219 255
196 220 255
196 220 255
196 220 255
196 220 255
196 220 255
196 220 255
196 220 255
196 220 255
196 220 255
196 220 255
196 220 255
196 220 255
196 220 255
196 220 255
196 220 255
196 220 255
196 220 255
196 220 255
196 220 255
196 220 255
196 220 255
196 220 255
197 220 255
197 220 255
197 220 255
197 220 255
197 220 255
197 220 255
197 220 255
197 220 255
197 220 255
197 220 255
197 220 255
197 220 255
197 220 255
197 220 255
197 220 255
197 220 255
197 220 255
197 220 255
197 220 255
197 220 255
197 221 255
197 221 255
197 221 255
197 221 255
197 221 255
197 221 255
91 17 181
115 18 193
140 18 193
164 17 181
197 221 255
197 221 255
197 221 255
197 221 255
197 221 255
197 221 255
197 220 255
197 220 255
197 220 255
197 220 255
197 220 255
197 220 255
197 220 255
197 220 255
197 220 255
197 220 255
197 220 255
197 220 255
197 220 255
197 220 255
197 220 255
197 220 255
197 220 255
197 220 255
197 220 255
197 220 255
196 220 255
196 220 255
196 220 255
196 220 255
196 220 255
196 220 255
196 220 255
196 220 255
196 220 255
196 220 255
196 220 255
196 220 255
196 220 255
196 220 255
196 220 255
196 220 255
196 220 255
196 220 255
196 220 255
196 220 255
196 220 255
196 220 255
196 220 255
197 220 255
197 220 255
197 220 255
197 220 255
197 220 255
197 220 255
197 220 255
197 220 255
197 220 255
197 220 255
197 220 255
197 220 255
197 220 255
197 221 255
197 221 255
197 221 255
197 221 255
197 221 255
197 221 255
198 221 255
198 221 255
198 221 255
198 221 255
198 221 255
198 221 255
198 221 255
198 221 255
198 221 255
198 221 255
198 221 255
198 221 255
198 221 255
198 221 255
198 221 255
198 221 255
198 221 255
198 221 255
198 221 255
198 221 255
198 221 255
198 221 255
198 221 255
198 221 255
198 221 255
198 221 255
198 221 255
198 221 255
198 221 255
198 221 255
198 221 255
198 221 255
198 221 255
198 221 255
198 221 255
198 221 255
198 221 255
198 221 255
198 221 255
198 221 255
198 221 255
198 221 255
198 221 255
198 221 255
198 221 255
198 221 255
198 221 255
198 221 255
198 221 255
198 221 255
198 221 255
198 221 255
198 221 255
198 221 255
198 221 255
198 221 255
198 221 255
198 221 255
198 221 255
198 221 255
197 221 255
197 221 255
197 221 255
197 221 255
197 221 255
197 221 255
197 220 255
197 220 255
197 220 255
197 220 255
197 220 255
197 220 255
197 220 255
197 220 255
197 220 255
197 220 255
197 220 255
197 220 255
197 220 255
196 220 255
197 221 255
197 221 255
198 221 255
198 221 255
198 221 255
198 221 255
198 221 255
198 221 255
198 221 255
198 221 255
198 221 255
198 221 255
198 221 255
198 221 255
198 221 255
198 221 255
198 221 255
198 221 255
198 221 255
199 221 255
199 221 255
199 221 255
199 221 255
199 221 255
199 222 255
199 222 255
199 222 255
199 222 255
199 222 255
199 222 255
199 222 255
199 222 255
199 222 255
199 222 255
199 222 255
199 222 255
199 222 255
200 222 255
200 222 255
200 222 255
200 222 255
200 222 255
200 222 255
200 222 255
200 222 255
200 222 255
200 222 255
200 222 255
200 222 255
200 222 255
200 222 255
200 222 255
200 222 255
200 222 255
200 222 255
200 222 255
200 222 255
200 222 255
200 222 255
200 222 255
200 222 255
200 222 255
200 222 255
199 222 255
199 222 255
199 222 255
199 222 255
199 222 255
199 222 255
199 222 255
199 222 255
199 222 255
199 222 255
199 222 255
199 222 255
199 222 255
199 221 255
199 221 255
199 221 255
199 221 255
199 221 255
198 221 255
198 221 255
198 221 255
198 221 255
198 221 255
198 221 255
198 221 255
198 221 255
198 221 255
198 221 255
198 221 255
198 221 255
198 221 255
198 221 255
198 221 255
198 221 255
198 221 255
197 221 255
197 221 255
198 221 255
198 221 255
198 221 255
198 221 255
199 221 255
199 221 255
199 221 255
199 221 255
199 222 255
199 222 255
199 222 255
199 222 255
199 222 255
199 222 255
199 222 255
199 222 255
199 222 255
199 222 255
200 222 255
200 222 255
200 222 255
200 222 255
200 222 255
200 222 255
200 222 255
200 222 255
200 222 255
200 222 255
200 222 255
200 222 255
200 222 255
200 222 255
200 222 255
201 223 255
201 223 255
201 223 255
201 223 255
201 223 255
201 223 255
201 223 255
201 223 255
201 223 255
201 223 255
201 223 255
201 223 255
201 223 255
201 223 255
201 223 255
201 223 255
201 223 255
201 223 255
201 223 255
201 223 255
201 223 255
201 223 255
201 223 255
201 223 255
201 223 255
201 223 255
201 223 255
201 223 255
201 223 255
201 223 255
201 223 255
201 223 255
201 223 255
201 223 255
200 222 255
200 222 255
200 222 255
200 222 255
200 222 255
200 222 255
200 222 255
200 222 255
200 222 255
200 222 255
200 222 255
200 222 255
200 222 255
200 222 255
200 222 255
199 222 255
199 222 255
199 222 255
199 222 255
199 222 255
199 222 255
199 222 255
199 222 255
199 222 255
199 222 255
199 221 255
199 221 255
199 221 255
199 221 255
198 221 255
198 221 255
198 221 255
198 221 255
199 222 255
199 222 255
199 222 255
199 222 255
199 222 255
200 222 255
200 222 255
200 222 255
200 222 255
200 222 255
200 222 255
200 222 255
200 222 255
200 222 255
200 222 255
200 222 255
200 222 255
201 223 255
201 223 255
201 223 255
201 223 255
201 223 255
201 223 255
201 223 255
201 223 255
201 223 255
201 223 255
201 223 255
201 223 255
201 223 255
202 223 255
202 223 255
202 223 255
202 223 255
202 223 255
202 223 255
202 223 255
202 223 255
202 223 255
202 223 255
202 223 255
202 223 255
202 223 255
202 223 255
202 223 255
202 224 255
202 224 255
202 224 255
202 224 255
202 224 255
202 224 255
202 224 255
202 224 255
202 224 255
202 224 255
202 223 255
202 223 255
202 223 255
202 223 255
202 223 255
202 223 255
202 223 255
202 223 255
202 223 255
202 223 255
202 223 255
202 223 255
202 223 255
202 223 255
202 223 255
201 223 255
201 223 255
201 223 255
201 223 255
201 223 255
201 223 255
201 223 255
201 223 255
201 223 255
201 223 255
201 223 255
201 223 255
201 223 255
200 222 255
200 222 255
200 222 255
200 222 255
200 222 255
200 222 255
200 222 255
200 222 255
200 222 255
200 222 255
200 222 255
200 222 255
199 222 255
199 222 255
199 222 255
199 222 255
199 222 255
200 222 255
200 222 255
200 222 255
200 222 255
200 222 255
200 222 255
201 223 255
201 223 255
201 223 255
201 223 255
201 223 255
201 223 255
201 223 255
201 223 255
201 223 255
201 223 255
201 223 255
202 223 255
202 223 255
202 223 255
202 223 255
202 223 255
202 223 255
202 223 255
202 224 255
202 224 255
202 224 255
202 224 255
203 224 255
203 224 255
203 224 255
203 224 255
203 224 255
203 224 255
203 224 255
203 224 255
203 224 255
203 224 255
203 224 255
203 224 255
203 224 255
203 224 255
203 224 255
203 224 255
203 224 255
203 224 255
203 224 255
203 224 255
203 224 255
203 224 255
203 224 255
203 224 255
203 224 255
203 224 255
203 224 255
203 224 255
203 224 255
203 224 255
203 224 255
203 224 255
203 224 255
203 224 255
203 224 255
203 224 255
203 224 255
203 224 255
203 224 255
203 224 255
203 224 255
203 224 255
203 224 255
203 224 255
202 224 255
202 224 255
202 224 255
202 224 255
202 223 255
202 223 255
202 223 255
202 223 255
202 223 255
202 223 255
202 223 255
201 223 255
201 223 255
201 223 255
201 223 255
201 223 255
201 223 255
201 223 255
201 223 255
201 223 255
201 223 255
201 223 255
200 222 255
200 222 255
200 222 255
200 222 255
200 222 255
200 222 255
201 223 255
201 223 255
201 223 255
201 223 255
201 223 255
201 223 255
202 223 255
202 223 255
202 223 255
202 223 255
202 223 255
202 223 255
202 223 255
202 224 255
202 224 255
202 224 255
202 224 255
203 224 255
203 224 255
203 224 255
203 224 255
203 224 255
203 224 255
203 224 255
203 224 255
203 224 255
203 224 255
204 224 255
204 224 255
204 224 255
204 224 255
204 225 255
204 225 255
204 225 255
204 225 255
204 225 255
204 225 255
204 225 255
204 225 255
204 225 255
204 225 255
204 225 255
205 225 255
205 225 255
205 225 255
205 225 255
205 225 255
205 225 255
205 225 255
205 225 255
205 225 255
205 225 255
205 225 255
205 225 255
205 225 255
205 225 255
205 225 255
205 225 255
204 225 255
204 225 255
204 225 255
204 225 255
204 225 255
204 225 255
204 225 255
204 225 255
204 225 255
204 225 255
204 225 255
204 224 255
204 224 255
204 224 255
204 224 255
203 224 255
203 224 255
203 224 255
203 224 255
203 224 255
203 224 255
203 224 255
203 224 255
203 224 255
203 224 255
202 224 255
202 224 255
202 224 255
202 224 255
202 223 255
202 223 255
202 223 255
202 223 255
202 223 255
202 223 255
202 223 255
201 223 255
201 223 255
201 223 255
201 223 255
201 223 255
201 223 255
202 223 255
202 223 255
202 223 255
202 223 255
202 224 255
202 224 255
202 224 255
203 224 255
203 224 255
203 224 255
203 224 255
203 224 255
203 224 255
203 224 255
203 224 255
203 224 255
204 224 255
204 224 255
204 224 255
204 224 255
204 225 255
204 225 255
204 225 255
204 225 255
204 225 255
204 225 255
205 225 255
205 225 255
205 225 255
205 225 255
205 225 255
205 225 255
205 225 255
205 225 255
205 225 255
205 225 255
205 225 255
205 225 255
205 225 255
206 226 255
206 226 255
206 226 255
206 226 255
206 226 255
206 226 255
206 226 255
206 226 255
206 226 255
206 226 255
206 226 255
206 226 255
206 226 255
206 226 255
206 226 255
206 226 255
206 226 255
206 226 255
206 226 255
206 226 255
206 226 255
206 226 255
205 225 255
205 225 255
205 225 255
205 225 255
205 225 255
205 225 255
205 225 255
205 225 255
205 225 255
205 225 255
205 225 255
205 225 255
205 225 255
204 225 255
204 225 255
204 225 255
204 225 255
204 225 255
204 225 255
204 224 255
204 224 255
204 224 255
204 224 255
203 224 255
203 224 255
203 224 255
203 224 255
203 224 255
203 224 255
203 224 255
203 224 255
203 224 255
202 224 255
202 224 255
202 224 255
202 223 255
202 223 255
202 223 255
202 223 255
203 224 255
203 224 255
203 224 255
203 224 255
203 224 255
203 224 255
203 224 255
203 224 255
204 224 255
204 224 255
204 224 255
204 225 255
204 225 255
204 225 255
204 225 255
204 225 255
205 225 255
205 225 255
205 225 255
205 225 255
205 225 255
205 225 255
205 225 255
205 225 255
205 225 255
206 226 255
206 226 255
206 226 255
206 226 255
206 226 255
206 226 255
206 226 255
206 226 255
206 226 255
206 226 255
206 226 255
207 226 255
207 226 255
207 226 255
207 226 255
207 226 255
207 226 255
207 226 255
207 226 255
207 226 255
207 226 255
207 226 255
207 226 255
207 226 255
207 226 255
207 226 255
207 226 255
207 226 255
207 226 255
207 226 255
207 226 255
207 226 255
207 226 255
207 226 255
207 226 255
207 226 255
207 226 255
207 226 255
207 226 255
206 226 255
206 226 255
206 226 255
206 226 255
206 226 255
206 226 255
206 226 255
206 226 255
206 226 255
206 226 255
206 226 255
205 225 255
205 225 255
205 225 255
205 225 255
205 225 255
205 225 255
205 225 255
205 225 255
205 225 255
204 225 255
204 225 255
204 225 255
204 225 255
204 225 255
204 224 255
204 224 255
204 224 255
203 224 255
203 224 255
203 224 255
203 224 255
203 224 255
203 224 255
203 224 255
203 224 255
204 224 255
204 224 255
204 224 255
204 225 255
204 225 255
204 225 255
204 225 255
204 225 255
205 225 255
205 225 255
205 225 255
205 225 255
205 225 255
205 225 255
205 225 255
205 225 255
206 226 255
206 226 255
206 226 255
206 226 255
206 226 255
206 226 255
206 226 255
206 226 255
206 226 255
207 226 255
207 226 255
207 226 255
207 226 255
207 226 255
207 226 255
207 227 255
207 227 255
207 227 255
207 227 255
208 227 255
208 227 255
208 227 255
208 227 255
208 227 255
208 227 255
208 227 255
208 227 255
208 227 255
208 227 255
208 227 255
208 227 255
208 227 255
208 227 255
208 227 255
208 227 255
208 227 255
208 227 255
208 227 255
208 227 255
208 227 255
208 227 255
208 227 255
208 227 255
208 227 255
208 227 255
208 227 255
208 227 255
208 227 255
208 227 255
207 227 255
207 227 255
207 227 255
207 227 255
207 226 255
207 226 255
207 226 255
207 226 255
207 226 255
207 226 255
206 226 255
206 226 255
206 226 255
206 226 255
206 226 255
206 226 255
206 226 255
206 226 255
206 226 255
205 225 255
205 225 255
205 225 255
205 225 255
205 225 255
205 225 255
205 225 255
205 225 255
204 225 255
204 225 255
204 225 255
204 225 255
204 225 255
204 224 255
204 224 255
204 224 255
204 225 255
205 225 255
205 225 255
205 225 255
205 225 255
205 225 255
205 225 255
205 225 255
205 225 255
206 226 255
206 226 255
206 226 255
206 226 255
206 226 255
206 226 255
206 226 255
206 226 255
207 226 255
207 226 255
207 226 255
207 226 255
207 226 255
207 227 255
207 227 255
208 227 255
208 227 255
208 227 255
208 227 255
208 227 255
208 227 255
208 227 255
208 227 255
208 227 255
208 227 255
209 227 255
209 227 255
209 227 255
209 227 255
209 228 255
209 228 255
209 228 255
209 228 255
209 228 255
209 228 255
209 228 255
209 228 255
209 228 255
209 228 255
209 228 255
209 228 255
209 228 255
209 228 255
209 228 255
209 228 255
209 228 255
209 228 255
209 228 255
209 228 255
209 228 255
209 228 255
209 228 255
209 228 255
209 227 255
209 227 255
209 227 255
209 227 255
208 227 255
208 227 255
208 227 255
208 227 255
208 227 255
208 227 255
208 227 255
208 227 255
208 227 255
208 227 255
207 227 255
207 227 255
207 226 255
207 226 255
207 226 255
207 226 255
207 226 255
206 226 255
206 226 255
206 226 255
206 226 255
206 226 255
206 226 255
206 226 255
206 226 255
205 225 255
205 225 255
205 225 255
205 225 255
205 225 255
205 225 255
205 225 255
205 225 255
204 225 255
205 225 255
205 225 255
206 226 255
206 226 255
206 226 255
206 226 255
206 226 255
206 226 255
206 226 255
206 226 255
207 226 255
207 226 255
207 226 255
207 226 255
207 227 255
207 227 255
207 227 255
208 227 255
208 227 255
208 227 255
208 227 255
208 227 255
208 227 255
208 227 255
209 227 255
209 227 255
209 227 255
209 228 255
209 228 255
209 228 255
209 228 255
209 228 255
209 228 255
210 228 255
210 228 255
210 228 255
210 228 255
210 228 255
210 228 255
210 228 255
210 228 255
210 228 255
210 228 255
210 228 255
210 228 255
210 228 255
210 228 255
210 228 255
210 228 255
210 228 255
210 228 255
210 228 255
210 228 255
210 228 255
210 228 255
210 228 255
210 228 255
210 228 255
210 228 255
210 228 255
210 228 255
210 228 255
210 228 255
210 228 255
210 228 255
210 228 255
210 228 255
209 228 255
209 228 255
209 228 255
209 228 255
209 228 255
209 228 255
209 227 255
209 227 255
209 227 255
208 227 255
208 227 255
208 227 255
208 227 255
208 227 255
208 227 255
208 227 255
207 227 255
207 227 255
207 227 255
207 226 255
207 226 255
207 226 255
207 226 255
206 226 255
206 226 255
206 226 255
206 226 255
206 226 255
206 226 255
206 226 255
206 226 255
205 225 255
205 225 255
206 226 255
206 226 255
206 226 255
207 226 255
207 226 255
207 226 255
207 226 255
207 226 255
207 227 255
207 227 255
208 227 255
208 227 255
208 227 255
208 227 255
208 227 255
208 227 255
208 227 255
209 227 255
209 227 255
209 228 255
209 228 255
209 228 255
209 228 255
209 228 255
210 228 255
210 228 255
210 228 255
210 228 255
210 228 255
210 228 255
210 228 255
210 228 255
211 229 255
211 229 255
211 229 255
211 229 255
211 229 255
211 229 255
211 229 255
211 229 255
211 229 255
211 229 255
211 229 255
211 229 255
211 229 255
211 229 255
212 229 255
212 229 255
212 229 255
212 229 255
212 229 255
212 229 255
212 229 255
212 229 255
211 229 255
211 229 255
211 229 255
211 229 255
211 229 255
211 229 255
211 229 255
211 229 255
211 229 255
211 229 255
211 229 255
211 229 255
211 229 255
211 229 255
210 228 255
210 228 255
210 228 255
210 228 255
210 228 255
210 228 255
210 228 255
210 228 255
209 228 255
209 228 255
209 228 255
209 228 255
209 228 255
209 227 255
209 227 255
208 227 255
208 227 255
208 227 255
208 227 255
208 227 255
208 227 255
208 227 255
207 227 255
207 227 255
207 226 255
207 226 255
207 226 255
207 226 255
207 226 255
206 226 255
206 226 255
206 226 255
207 226 255
207 226 255
207 227 255
207 227 255
208 227 255
208 227 255
208 227 255
208 227 255
208 227 255
208 227 255
208 227 255
209 227 255
209 227 255
209 228 255
209 228 255
209 228 255
209 228 255
210 228 255
210 228 255
210 228 255
210 228 255
210 228 255
210 228 255
210 228 255
211 229 255
211 229 255
211 229 255
211 229 255
211 229 255
211 229 255
211 229 255
211 229 255
212 229 255
212 229 255
212 229 255
212 229 255
212 229 255
212 229 255
212 229 255
212 230 255
212 230 255
212 230 255
212 230 255
212 230 255
213 230 255
213 230 255
213 230 255
213 230 255
213 230 255
213 230 255
213 230 255
213 230 255
213 230 255
213 230 255
213 230 255
213 230 255
212 230 255
212 230 255
212 230 255
212 230 255
212 230 255
212 229 255
212 229 255
212 229 255
212 229 255
212 229 255
212 229 255
212 229 255
211 229 255
211 229 255
211 229 255
211 229 255
211 229 255
211 229 255
211 229 255
211 229 255
210 228 255
210 228 255
210 228 255
210 228 255
210 228 255
210 228 255
210 228 255
209 228 255
209 228 255
209 228 255
209 228 255
209 227 255
209 227 255
208 227 255
208 227 255
208 227 255
208 227 255
208 227 255
208 227 255
208 227 255
207 227 255
207 227 255
207 226 255
207 226 255
208 227 255
208 227 255
208 227 255
208 227 255
208 227 255
209 227 255
209 227 255
209 228 255
209 228 255
209 228 255
209 228 255
210 228 255
210 228 255
210 228 255
210 228 255
210 228 255
210 228 255
210 228 255
211 229 255
211 229 255
211 229 255
211 229 255
211 229 255
211 229 255
212 229 255
212 229 255
212 229 255
212 229 255
212 229 255
212 230 255
212 230 255
212 230 255
213 230 255
213 230 255
213 230 255
213 230 255
213 230 255
213 230 255
213 230 255
213 230 255
213 230 255
213 230 255
213 230 255
214 230 255
214 230 255
214 230 255
214 230 255
214 230 255
214 230 255
214 230 255
214 230 255
214 230 255
214 230 255
214 230 255
214 230 255
214 230 255
214 230 255
213 230 255
213 230 255
213 230 255
213 230 255
213 230 255
213 230 255
213 230 255
213 230 255
213 230 255
213 230 255
213 230 255
212 230 255
212 230 255
212 230 255
212 229 255
212 229 255
212 229 255
212 229 255
212 229 255
211 229 255
211 229 255
211 229 255
211 229 255
211 229 255
211 229 255
210 228 255
210 228 255
210 228 255
210 228 255
210 228 255
210 228 255
210 228 255
209 228 255
209 228 255
209 228 255
209 228 255
209 227 255
209 227 255
208 227 255
208 227 255
208 227 255
208 227 255
208 227 255
209 227 255
209 227 255
209 228 255
209 228 255
209 228 255
209 228 255
210 228 255
210 228 255
210 228 255
210 228 255
210 228 255
210 228 255
211 229 255
211 229 255
211 229 255
211 229 255
211 229 255
211 229 255
212 229 255
212 229 255
212 229 255
212 229 255
212 230 255
212 230 255
213 230 255
213 230 255
213 230 255
213 230 255
213 230 255
213 230 255
213 230 255
213 230 255
214 230 255
214 230 255
214 231 255
214 231 255
214 231 255
214 231 255
214 231 255
214 231 255
214 231 255
214 231 255
215 231 255
215 231 255
215 231 255
215 231 255
215 231 255
215 231 255
215 231 255
215 231 255
215 231 255
215 231 255
215 231 255
215 231 255
215 231 255
215 231 255
215 231 255
215 231 255
214 231 255
214 231 255
214 231 255
214 231 255
214 231 255
214 231 255
214 231 255
214 231 255
214 230 255
214 230 255
213 230 255
213 230 255
213 230 255
213 230 255
213 230 255
213 230 255
213 230 255
213 230 255
212 230 255
212 230 255
212 229 255
212 229 255
212 229 255
212 229 255
211 229 255
211 229 255
211 229 255
211 229 255
211 229 255
211 229 255
210 228 255
210 228 255
210 228 255
210 228 255
210 228 255
210 228 255
209 228 255
209 228 255
209 228 255
209 228 255
209 227 255
209 227 255
209 228 255
210 228 255
210 228 255
210 228 255
210 228 255
210 228 255
210 228 255
211 229 255
211 229 255
211 229 255
211 229 255
211 229 255
211 229 255
212 229 255
212 229 255
212 229 255
212 229 255
212 230 255
212 230 255
213 230 255
213 230 255
213 230 255
213 230 255
213 230 255
213 230 255
214 230 255
214 230 255
214 231 255
214 231 255
214 231 255
214 231 255
214 231 255
215 231 255
215 231 255
215 231 255
215 231 255
215 231 255
215 231 255
215 231 255
215 231 255
215 231 255
215 231 255
216 232 255
216 232 255
216 232 255
216 232 255
216 232 255
216 232 255
216 232 255
216 232 255
216 232 255
216 232 255
216 232 255
216 232 255
216 232 255
216 232 255
216 232 255
216 232 255
215 231 255
215 231 255
215 231 255
215 231 255
215 231 255
215 231 255
215 231 255
215 231 255
215 231 255
215 231 255
214 231 255
214 231 255
214 231 255
214 231 255
214 231 255
214 230 255
214 230 255
213 230 255
213 230 255
213 230 255
213 230 255
213 230 255
213 230 255
212 230 255
212 230 255
212 229 255
212 229 255
212 229 255
212 229 255
211 229 255
211 229 255
211 229 255
211 229 255
211 229 255
211 229 255
210 228 255
210 228 255
210 228 255
210 228 255
210 228 255
210 228 255
209 228 255
210 228 255
210 228 255
211 229 255
211 229 255
211 229 255
211 229 255
211 229 255
211 229 255
212 229 255
212 229 255
212 229 255
212 229 255
212 230 255
212 230 255
213 230 255
213 230 255
213 230 255
213 230 255
213 230 255
214 230 255
214 230 255
214 231 255
214 231 255
214 231 255
214 231 255
215 231 255
215 231 255
215 231 255
215 231 255
215 231 255
215 231 255
215 231 255
216 232 255
216 232 255
216 232 255
216 232 255
216 232 255
216 232 255
216 232 255
216 232 255
216 232 255
216 232 255
217 232 255
217 232 255
217 232 255
217 232 255
217 232 255
217 232 255
217 232 255
217 232 255
217 232 255
217 232 255
217 232 255
217 232 255
217 232 255
217 232 255
217 232 255
217 232 255
216 232 255
216 232 255
216 232 255
216 232 255
216 232 255
216 232 255
216 232 255
216 232 255
216 232 255
216 232 255
215 231 255
215 231 255
215 231 255
215 231 255
215 231 255
215 231 255
215 231 255
214 231 255
214 231 255
214 231 255
214 231 255
214 230 255
214 230 255
213 230 255
213 230 255
213 230 255
213 230 255
213 230 255
212 230 255
212 230 255
212 229 255
212 229 255
212 229 255
212 229 255
211 229 255
211 229 255
211 229 255
211 229 255
211 229 255
211 229 255
210 228 255
210 228 255
211 229 255
211 229 255
211 229 255
212 229 255
212 229 255
212 229 255
212 229 255
212 230 255
212 230 255
213 230 255
213 230 255
213 230 255
213 230 255
213 230 255
214 230 255
214 230 255
214 231 255
214 231 255
214 231 255
214 231 255
215 231 255
215 231 255
215 231 255
215 231 255
215 231 255
215 231 255
216 232 255
216 232 255
216 232 255
216 232 255
216 232 255
216 232 255
217 232 255
217 232 255
217 232 255
217 232 255
217 232 255
217 232 255
217 233 255
217 233 255
217 233 255
217 233 255
218 233 255
218 233 255
218 233 255
218 233 255
218 233 255
218 233 255
218 233 255
218 233 255
218 233 255
218 233 255
218 233 255
218 233 255
218 233 255
218 233 255
218 233 255
218 233 255
217 233 255
217 233 255
217 233 255
217 233 255
217 232 255
217 232 255
217 232 255
217 232 255
217 232 255
217 232 255
216 232 255
216 232 255
216 232 255
216 232 255
216 232 255
216 232 255
215 231 255
215 231 255
215 231 255
215 231 255
215 231 255
215 231 255
214 231 255
214 231 255
214 231 255
214 231 255
214 230 255
214 230 255
213 230 255
213 230 255
213 230 255
213 230 255
213 230 255
212 230 255
212 230 255
212 229 255
212 229 255
212 229 255
212 229 255
211 229 255
211 229 255
211 229 255
212 229 255
212 229 255
212 229 255
212 230 255
213 230 255
213 230 255
213 230 255
213 230 255
213 230 255
213 230 255
214 230 255
214 231 255
214 231 255
214 231 255
214 231 255
215 231 255
215 231 255
215 231 255
215 231 255
215 231 255
216 232 255
216 232 255
216 232 255
216 232 255
216 232 255
216 232 255
217 232 255
217 232 255
217 232 255
217 232 255
217 233 255
217 233 255
217 233 255
218 233 255
218 233 255
218 233 255
218 233 255
218 233 255
218 233 255
218 233 255
218 233 255
218 233 255
218 233 255
219 233 255
219 233 255
219 233 255
219 233 255
219 233 255
219 233 255
219 233 255
219 233 255
219 233 255
219 233 255
219 233 255
219 233 255
219 233 255
219 233 255
218 233 255
218 233 255
218 233 255
218 233 255
218 233 255
218 233 255
218 233 255
218 233 255
218 233 255
218 233 255
217 233 255
217 233 255
217 233 255
217 232 255
217 232 255
217 232 255
217 232 255
216 232 255
216 232 255
216 232 255
216 232 255
216 232 255
216 232 255
215 231 255
215 231 255
215 231 255
215 231 255
215 231 255
214 231 255
214 231 255
214 231 255
214 231 255
214 230 255
213 230 255
213 230 255
213 230 255
213 230 255
213 230 255
213 230 255
212 230 255
212 229 255
212 229 255
212 229 255
213 230 255
213 230 255
213 230 255
213 230 255
213 230 255
213 230 255
214 230 255
214 231 255
214 231 255
214 231 255
214 231 255
215 231 255
215 231 255
215 231 255
215 231 255
215 231 255
216 232 255
216 232 255
216 232 255
216 232 255
216 232 255
217 232 255
217 232 255
217 232 255
217 232 255
217 233 255
217 233 255
218 233 255
218 233 255
218 233 255
218 233 255
218 233 255
218 233 255
218 233 255
219 233 255
219 233 255
219 234 255
219 234 255
219 234 255
219 234 255
219 234 255
219 234 255
219 234 255
219 234 255
220 234 255
220 234 255
220 234 255
220 234 255
220 234 255
220 234 255
220 234 255
220 234 255
220 234 255
220 234 255
220 234 255
220 234 255
219 234 255
219 234 255
219 234 255
219 234 255
219 234 255
219 234 255
219 234 255
219 234 255
219 233 255
219 233 255
218 233 255
218 233 255
218 233 255
218 233 255
218 233 255
218 233 255
218 233 255
217 233 255
217 233 255
217 232 255
217 232 255
217 232 255
217 232 255
216 232 255
216 232 255
216 232 255
216 232 255
216 232 255
215 231 255
215 231 255
215 231 255
215 231 255
215 231 255
214 231 255
214 231 255
214 231 255
214 231 255
214 230 255
213 230 255
213 230 255
213 230 255
213 230 255
213 230 255
213 230 255
213 230 255
214 230 255
214 230 255
214 231 255
214 231 255
214 231 255
214 231 255
215 231 255
215 231 255
215 231 255
215 231 255
215 231 255
216 232 255
216 232 255
216 232 255
216 232 255
216 232 255
217 232 255
217 232 255
217 232 255
217 233 255
217 233 255
218 233 255
218 233 255
218 233 255
218 233 255
218 233 255
218 233 255
219 233 255
219 233 255
219 234 255
219 234 255
219 234 255
219 234 255
220 234 255
220 234 255
220 234 255
220 234 255
220 234 255
220 234 255
220 234 255
220 234 255
220 234 255
220 234 255
220 234 255
220 234 255
221 235 255
221 235 255
221 235 255
221 235 255
221 235 255
221 235 255
221 235 255
221 235 255
220 234 255
220 234 255
220 234 255
220 234 255
220 234 255
220 234 255
220 234 255
220 234 255
220 234 255
220 234 255
220 234 255
220 234 255
219 234 255
219 234 255
219 234 255
219 234 255
219 233 255
219 233 255
218 233 255
218 233 255
218 233 255
218 233 255
218 233 255
218 233 255
217 233 255
217 233 255
217 232 255
217 232 255
217 232 255
216 232 255
216 232 255
216 232 255
216 232 255
216 232 255
215 231 255
215 231 255
215 231 255
215 231 255
215 231 255
214 231 255
214 231 255
214 231 255
214 231 255
214 230 255
214 230 255
213 230 255
214 231 255
214 231 255
214 231 255
215 231 255
215 231 255
215 231 255
215 231 255
215 231 255
216 232 255
216 232 255
216 232 255
216 232 255
216 232 255
217 232 255
217 232 255
217 232 255
217 233 255
217 233 255
218 233 255
218 233 255
218 233 255
218 233 255
218 233 255
219 233 255
219 233 255
219 234 255
219 234 255
219 234 255
220 234 255
220 234 255
220 234 255
220 234 255
220 234 255
220 234 255
220 234 255
221 235 255
221 235 255
221 235 255
221 235 255
221 235 255
221 235 255
221 235 255
221 235 255
221 235 255
221 235 255
221 235 255
221 235 255
221 235 255
221 235 255
221 235 255
221 235 255
221 235 255
221 235 255
221 235 255
221 235 255
221 235 255
221 235 255
221 235 255
221 235 255
221 235 255
221 235 255
221 235 255
221 235 255
221 235 255
221 235 255
220 234 255
220 234 255
220 234 255
220 234 255
220 234 255
220 234 255
220 234 255
219 234 255
219 234 255
219 234 255
219 233 255
219 233 255
218 233 255
218 233 255
218 233 255
218 233 255
218 233 255
217 233 255
217 233 255
217 232 255
217 232 255
217 232 255
216 232 255
216 232 255
216 232 255
216 232 255
216 232 255
215 231 255
215 231 255
215 231 255
215 231 255
215 231 255
214 231 255
214 231 255
214 231 255
215 231 255
215 231 255
215 231 255
215 231 255
216 232 255
216 232 255
216 232 255
216 232 255
216 232 255
217 232 255
217 232 255
217 232 255
217 233 255
217 233 255
218 233 255
218 233 255
218 233 255
218 233 255
219 233 255
219 233 255
219 234 255
219 234 255
219 234 255
219 234 255
220 234 255
220 234 255
220 234 255
220 234 255
220 234 255
221 235 255
221 235 255
221 235 255
221 235 255
221 235 255
221 235 255
221 235 255
222 235 255
222 235 255
222 235 255
222 235 255
222 235 255
222 235 255
222 235 255
222 235 255
222 236 255
222 236 255
222 236 255
222 236 255
222 236 255
222 236 255
222 236 255
222 236 255
222 236 255
222 236 255
222 236 255
222 236 255
222 235 255
222 235 255
222 235 255
222 235 255
222 235 255
222 235 255
222 235 255
222 235 255
221 235 255
221 235 255
221 235 255
221 235 255
221 235 255
221 235 255
221 235 255
220 234 255
220 234 255
220 234 255
220 234 255
220 234 255
219 234 255
219 234 255
219 234 255
219 234 255
219 233 255
219 233 255
218 233 255
218 233 255
218 233 255
218 233 255
217 233 255
217 233 255
217 232 255
217 232 255
217 232 255
216 232 255
216 232 255
216 232 255
216 232 255
216 232 255
215 231 255
215 231 255
215 231 255
215 231 255
216 232 255
216 232 255
216 232 255
216 232 255
216 232 255
217 232 255
217 232 255
217 232 255
217 233 255
217 233 255
218 233 255
218 233 255
218 233 255
218 233 255
218 233 255
219 233 255
219 234 255
219 234 255
219 234 255
220 234 255
220 234 255
220 234 255
220 234 255
220 234 255
220 234 255
221 235 255
221 235 255
221 235 255
221 235 255
221 235 255
222 235 255
222 235 255
222 235 255
222 235 255
222 235 255
222 236 255
222 236 255
222 236 255
223 236 255
223 236 255
223 236 255
223 236 255
223 236 255
223 236 255
223 236 255
223 236 255
223 236 255
223 236 255
223 236 255
223 236 255
223 236 255
223 236 255
223 236 255
223 236 255
223 236 255
223 236 255
223 236 255
223 236 255
223 236 255
223 236 255
223 236 255
223 236 255
222 236 255
222 236 255
222 236 255
222 235 255
222 235 255
222 235 255
222 235 255
222 235 255
221 235 255
221 235 255
221 235 255
221 235 255
221 235 255
220 234 255
220 234 255
220 234 255
220 234 255
220 234 255
220 234 255
219 234 255
219 234 255
219 234 255
219 233 255
218 233 255
218 233 255
218 233 255
218 233 255
218 233 255
217 233 255
217 233 255
217 232 255
217 232 255
217 232 255
216 232 255
216 232 255
216 232 255
216 232 255
216 232 255
216 232 255
216 232 255
217 232 255
217 232 255
217 232 255
217 233 255
218 233 255
218 233 255
218 233 255
218 233 255
218 233 255
219 233 255
219 233 255
219 234 255
219 234 255
219 234 255
220 234 255
220 234 255
220 234 255
220 234 255
220 234 255
221 235 255
221 235 255
221 235 255
221 235 255
221 235 255
222 235 255
222 235 255
222 235 255
222 235 255
222 236 255
222 236 255
223 236 255
223 236 255
223 236 255
223 236 255
223 236 255
223 236 255
223 236 255
224 236 255
224 236 255
224 236 255
224 236 255
224 236 255
224 237 255
224 237 255
224 237 255
224 237 255
224 237 255
224 237 255
224 237 255
224 237 255
224 237 255
224 237 255
224 237 255
224 237 255
224 236 255
224 236 255
224 236 255
224 236 255
224 236 255
223 236 255
223 236 255
223 236 255
223 236 255
223 236 255
223 236 255
223 236 255
222 236 255
222 236 255
222 235 255
222 235 255
222 235 255
222 235 255
221 235 255
221 235 255
221 235 255
221 235 255
221 235 255
220 234 255
220 234 255
220 234 255
220 234 255
220 234 255
219 234 255
219 234 255
219 234 255
219 233 255
219 233 255
218 233 255
218 233 255
218 233 255
218 233 255
218 233 255
217 233 255
217 232 255
217 232 255
217 232 255
216 232 255
216 232 255
217 232 255
217 233 255
217 233 255
218 233 255
218 233 255
218 233 255
218 233 255
218 233 255
219 233 255
219 234 255
219 234 255
219 234 255
220 234 255
220 234 255
220 234 255
220 234 255
220 234 255
221 235 255
221 235 255
221 235 255
221 235 255
221 235 255
222 235 255
222 235 255
222 235 255
222 236 255
222 236 255
223 236 255
223 236 255
223 236 255
223 236 255
223 236 255
223 236 255
224 236 255
224 236 255
224 237 255
224 237 255
224 237 255
224 237 255
224 237 255
224 237 255
224 237 255
225 237 255
225 237 255
225 237 255
225 237 255
225 237 255
225 237 255
225 237 255
225 237 255
225 237 255
225 237 255
225 237 255
225 237 255
225 237 255
225 237 255
225 237 255
225 237 255
224 237 255
224 237 255
224 237 255
224 237 255
224 237 255
224 237 255
224 237 255
224 236 255
224 236 255
223 236 255
223 236 255
223 236 255
223 236 255
223 236 255
223 236 255
222 236 255
222 236 255
222 235 255
222 235 255
222 235 255
221 235 255
221 235 255
221 235 255
221 235 255
221 235 255
220 234 255
220 234 255
220 234 255
220 234 255
220 234 255
219 234 255
219 234 255
219 234 255
219 233 255
218 233 255
218 233 255
218 233 255
218 233 255
218 233 255
217 233 255
217 233 255
217 232 255
218 233 255
218 233 255
218 233 255
218 233 255
219 233 255
219 233 255
219 234 255
219 234 255
219 234 255
220 234 255
220 234 255
220 234 255
220 234 255
221 235 255
221 235 255
221 235 255
221 235 255
221 235 255
222 235 255
222 235 255
222 235 255
222 236 255
222 236 255
223 236 255
223 236 255
223 236 255
223 236 255
223 236 255
224 236 255
224 236 255
224 237 255
224 237 255
224 237 255
224 237 255
224 237 255
225 237 255
225 237 255
225 237 255
225 237 255
225 237 255
225 237 255
225 237 255
225 237 255
225 237 255
225 237 255
226 238 255
226 238 255
226 238 255
226 238 255
226 238 255
226 238 255
226 238 255
226 238 255
226 238 255
226 238 255
225 237 255
225 237 255
225 237 255
225 237 255
225 237 255
225 237 255
225 237 255
225 237 255
225 237 255
225 237 255
224 237 255
224 237 255
224 237 255
224 237 255
224 237 255
224 236 255
224 236 255
223 236 255
223 236 255
223 236 255
223 236 255
223 236 255
222 236 255
222 236 255
222 235 255
222 235 255
222 235 255
221 235 255
221 235 255
221 235 255
221 235 255
221 235 255
220 234 255
220 234 255
220 234 255
220 234 255
219 234 255
219 234 255
219 234 255
219 233 255
219 233 255
218 233 255
218 233 255
218 233 255
218 233 255
218 233 255
219 233 255
219 233 255
219 234 255
219 234 255
219 234 255
220 234 255
220 234 255
220 234 255
220 234 255
221 235 255
221 235 255
221 235 255
221 235 255
221 235 255
222 235 255
222 235 255
222 235 255
222 236 255
223 236 255
223 236 255
223 236 255
223 236 255
223 236 255
224 236 255
224 236 255
224 237 255
224 237 255
224 237 255
224 237 255
225 237 255
225 237 255
225 237 255
225 237 255
225 237 255
225 237 255
226 238 255
226 238 255
226 238 255
226 238 255
226 238 255
226 238 255
226 238 255
226 238 255
226 238 255
226 238 255
226 238 255
226 238 255
226 238 255
226 238 255
226 238 255
226 238 255
226 238 255
226 238 255
226 238 255
226 238 255
226 238 255
226 238 255
226 238 255
226 238 255
226 238 255
226 238 255
226 238 255
226 238 255
225 237 255
225 237 255
225 237 255
225 237 255
225 237 255
225 237 255
224 237 255
224 237 255
224 237 255
224 237 255
224 236 255
224 236 255
223 236 255
223 236 255
223 236 255
223 236 255
223 236 255
222 236 255
222 235 255
222 235 255
222 235 255
221 235 255
221 235 255
221 235 255
221 235 255
221 235 255
220 234 255
220 234 255
220 234 255
220 234 255
219 234 255
219 234 255
219 234 255
219 233 255
219 233 255
218 233 255
219 234 255
219 234 255
219 234 255
220 234 255
220 234 255
220 234 255
220 234 255
221 235 255
221 235 255
221 235 255
221 235 255
222 235 255
222 235 255
222 235 255
222 236 255
222 236 255
223 236 255
223 236 255
223 236 255
223 236 255
223 236 255
224 236 255
224 237 255
224 237 255
224 237 255
224 237 255
225 237 255
225 237 255
225 237 255
225 237 255
225 237 255
226 238 255
226 238 255
226 238 255
226 238 255
226 238 255
226 238 255
226 238 255
226 238 255
227 238 255
227 238 255
227 238 255
227 238 255
227 238 255
227 238 255
227 238 255
227 238 255
227 238 255
227 238 255
227 238 255
227 238 255
227 238 255
227 238 255
227 238 255
227 238 255
227 238 255
227 238 255
227 238 255
227 238 255
227 238 255
227 238 255
226 238 255
226 238 255
226 238 255
226 238 255
226 238 255
226 238 255
226 238 255
226 238 255
225 237 255
225 237 255
225 237 255
225 237 255
225 237 255
224 237 255
224 237 255
224 237 255
224 237 255
224 236 255
223 236 255
223 236 255
223 236 255
223 236 255
223 236 255
222 236 255
222 236 255
222 235 255
222 235 255
222 235 255
221 235 255
221 235 255
221 235 255
221 235 255
220 234 255
220 234 255
220 234 255
220 234 255
219 234 255
219 234 255
219 234 255
220 234 255
220 234 255
220 234 255
220 234 255
221 235 255
221 235 255
221 235 255
221 235 255
222 235 255
222 235 255
222 235 255
222 236 255
222 236 255
223 236 255
223 236 255
223 236 255
223 236 255
224 236 255
224 236 255
224 237 255
224 237 255
224 237 255
225 237 255
225 237 255
225 237 255
225 237 255
225 237 255
226 238 255
226 238 255
226 238 255
226 238 255
226 238 255
226 238 255
227 238 255
227 238 255
227 238 255
227 238 255
227 238 255
227 239 255
227 239 255
227 239 255
227 239 255
228 239 255
228 239 255
228 239 255
228 239 255
228 239 255
228 239 255
228 239 255
228 239 255
228 239 255
228 239 255
228 239 255
228 239 255
228 239 255
228 239 255
228 239 255
228 239 255
227 239 255
227 239 255
227 239 255
227 239 255
227 238 255
227 238 255
227 238 255
227 238 255
227 238 255
226 238 255
226 238 255
226 238 255
226 238 255
226 238 255
226 238 255
225 237 255
225 237 255
225 237 255
225 237 255
225 237 255
224 237 255
224 237 255
224 237 255
224 236 255
224 236 255
223 236 255
223 236 255
223 236 255
223 236 255
222 236 255
222 236 255
222 235 255
222 235 255
222 235 255
221 235 255
221 235 255
221 235 255
221 235 255
220 234 255
220 234 255
220 234 255
220 234 255
220 234 255
221 235 255
221 235 255
221 235 255
221 235 255
221 235 255
222 235 255
222 235 255
222 236 255
222 236 255
223 236 255
223 236 255
223 236 255
223 236 255
224 236 255
224 236 255
224 237 255
224 237 255
224 237 255
225 237 255
225 237 255
225 237 255
225 237 255
226 238 255
226 238 255
226 238 255
226 238 255
226 238 255
226 238 255
227 238 255
227 238 255
227 238 255
227 238 255
227 239 255
227 239 255
228 239 255
228 239 255
228 239 255
228 239 255
228 239 255
228 239 255
228 239 255
228 239 255
228 239 255
228 239 255
228 239 255
228 239 255
229 239 255
229 239 255
229 239 255
229 239 255
229 239 255
229 239 255
228 239 255
228 239 255
228 239 255
228 239 255
228 239 255
228 239 255
228 239 255
228 239 255
228 239 255
228 239 255
228 239 255
228 239 255
227 239 255
227 239 255
227 238 255
227 238 255
227 238 255
227 238 255
226 238 255
226 238 255
226 238 255
226 238 255
226 238 255
226 238 255
225 237 255
225 237 255
225 237 255
225 237 255
224 237 255
224 237 255
224 237 255
224 236 255
224 236 255
223 236 255
223 236 255
223 236 255
223 236 255
222 236 255
222 236 255
222 235 255
222 235 255
221 235 255
221 235 255
221 235 255
221 235 255
221 235 255
220 234 255
221 235 255
221 235 255
221 235 255
222 235 255
222 235 255
222 235 255
222 236 255
223 236 255
223 236 255
223 236 255
223 236 255
224 236 255
224 236 255
224 237 255
224 237 255
224 237 255
225 237 255
225 237 255
225 237 255
225 237 255
226 238 255
226 238 255
226 238 255
226 238 255
226 238 255
227 238 255
227 238 255
227 238 255
227 238 255
227 239 255
227 239 255
228 239 255
228 239 255
228 239 255
228 239 255
228 239 255
228 239 255
228 239 255
229 239 255
229 239 255
229 239 255
229 240 255
229 240 255
229 240 255
229 240 255
229 240 255
229 240 255
229 240 255
229 240 255
229 240 255
229 240 255
229 240 255
229 240 255
229 240 255
229 240 255
229 240 255
229 240 255
229 240 255
229 240 255
229 239 255
229 239 255
229 239 255
228 239 255
228 239 255
228 239 255
228 239 255
228 239 255
228 239 255
228 239 255
227 239 255
227 239 255
227 238 255
227 238 255
227 238 255
227 238 255
226 238 255
226 238 255
226 238 255
226 238 255
226 238 255
225 237 255
225 237 255
225 237 255
225 237 255
224 237 255
224 237 255
224 237 255
224 236 255
224 236 255
223 236 255
223 236 255
223 236 255
223 236 255
222 236 255
222 235 255
222 235 255
222 235 255
221 235 255
221 235 255
221 235 255
222 235 255
222 235 255
222 235 255
222 236 255
223 236 255
223 236 255
223 236 255
223 236 255
223 236 255
224 236 255
224 237 255
224 237 255
224 237 255
225 237 255
225 237 255
225 237 255
225 237 255
226 238 255
226 238 255
226 238 255
226 238 255
226 238 255
227 238 255
227 238 255
227 238 255
227 239 255
227 239 255
228 239 255
228 239 255
228 239 255
228 239 255
228 239 255
228 239 255
229 239 255
229 239 255
229 240 255
229 240 255
229 240 255
229 240 255
229 240 255
229 240 255
230 240 255
230 240 255
230 240 255
230 240 255
230 240 255
230 240 255
230 240 255
230 240 255
230 240 255
230 240 255
230 240 255
230 240 255
230 240 255
230 240 255
230 240 255
230 240 255
230 240 255
230 240 255
229 240 255
229 240 255
229 240 255
229 240 255
229 240 255
229 240 255
229 239 255
229 239 255
228 239 255
228 239 255
228 239 255
228 239 255
228 239 255
228 239 255
227 239 255
227 239 255
227 238 255
227 238 255
227 238 255
226 238 255
226 238 255
226 238 255
226 238 255
226 238 255
225 237 255
225 237 255
225 237 255
225 237 255
224 237 255
224 237 255
224 237 255
224 236 255
223 236 255
223 236 255
223 236 255
223 236 255
223 236 255
222 236 255
222 235 255
222 235 255
222 235 255
222 236 255
222 236 255
223 236 255
223 236 255
223 236 255
223 236 255
224 236 255
224 237 255
224 237 255
224 237 255
225 237 255
225 237 255
225 237 255
225 237 255
226 238 255
226 238 255
226 238 255
226 238 255
226 238 255
227 238 255
227 238 255
227 238 255
227 239 255
227 239 255
228 239 255
228 239 255
228 239 255
228 239 255
228 239 255
229 239 255
229 239 255
229 240 255
229 240 255
229 240 255
229 240 255
230 240 255
230 240 255
230 240 255
230 240 255
230 240 255
230 240 255
230 240 255
230 240 255
230 240 255
230 240 255
230 240 255
230 240 255
231 241 255
231 241 255
231 241 255
231 241 255
231 241 255
231 241 255
230 240 255
230 240 255
230 240 255
230 240 255
230 240 255
230 240 255
230 240 255
230 240 255
230 240 255
230 240 255
230 240 255
230 240 255
229 240 255
229 240 255
229 240 255
229 240 255
229 239 255
229 239 255
228 239 255
228 239 255
228 239 255
228 239 255
228 239 255
227 239 255
227 239 255
227 238 255
227 238 255
227 238 255
226 238 255
226 238 255
226 238 255
226 238 255
226 238 255
225 237 255
225 237 255
225 237 255
225 237 255
224 237 255
224 237 255
224 237 255
224 236 255
223 236 255
223 236 255
223 236 255
223 236 255
222 236 255
222 236 255
223 236 255
223 236 255
223 236 255
224 236 255
224 236 255
224 237 255
224 237 255
225 237 255
225 237 255
225 237 255
225 237 255
225 237 255
226 238 255
226 238 255
226 238 255
226 238 255
227 238 255
227 238 255
227 238 255
227 239 255
228 239 255
228 239 255
228 239 255
228 239 255
228 239 255
229 239 255
229 239 255
229 240 255
229 240 255
229 240 255
229 240 255
230 240 255
230 240 255
230 240 255
230 240 255
230 240 255
230 240 255
230 240 255
231 241 255
231 241 255
231 241 255
231 241 255
231 241 255
231 241 255
231 241 255
231 241 255
231 241 255
231 241 255
231 241 255
231 241 255
231 241 255
231 241 255
231 241 255
231 241 255
231 241 255
231 241 255
231 241 255
231 241 255
231 241 255
231 241 255
231 241 255
231 241 255
230 240 255
230 240 255
230 240 255
230 240 255
230 240 255
230 240 255
230 240 255
229 240 255
229 240 255
229 240 255
229 240 255
229 239 255
229 239 255
228 239 255
228 239 255
228 239 255
228 239 255
228 239 255
227 239 255
227 238 255
227 238 255
227 238 255
226 238 255
226 238 255
226 238 255
226 238 255
225 237 255
225 237 255
225 237 255
225 237 255
225 237 255
224 237 255
224 237 255
224 236 255
224 236 255
223 236 255
223 236 255
223 236 255
223 236 255
224 236 255
224 237 255
224 237 255
224 237 255
225 237 255
225 237 255
225 237 255
225 237 255
226 238 255
226 238 255
226 238 255
226 238 255
227 238 255
227 238 255
227 238 255
227 239 255
227 239 255
228 239 255
228 239 255
228 239 255
228 239 255
229 239 255
229 239 255
229 240 255
229 240 255
229 240 255
230 240 255
230 240 255
230 240 255
230 240 255
230 240 255
230 240 255
231 241 255
231 241 255
231 241 255
231 241 255
231 241 255
231 241 255
231 241 255
231 241 255
231 241 255
232 241 255
232 241 255
232 241 255
232 241 255
232 241 255
232 241 255
232 241 255
232 241 255
232 241 255
232 241 255
232 241 255
232 241 255
232 241 255
232 241 255
232 241 255
232 241 255
231 241 255
231 241 255
231 241 255
231 241 255
231 241 255
231 241 255
231 241 255
231 241 255
231 241 255
230 240 255
230 240 255
230 240 255
230 240 255
230 240 255
230 240 255
229 240 255
229 240 255
229 240 255
229 239 255
229 239 255
228 239 255
228 239 255
228 239 255
228 239 255
227 239 255
227 239 255
227 238 255
227 238 255
227 238 255
226 238 255
226 238 255
226 238 255
226 238 255
225 237 255
225 237 255
225 237 255
225 237 255
224 237 255
224 237 255
224 237 255
224 236 255
223 236 255
224 237 255
224 237 255
224 237 255
225 237 255
225 237 255
225 237 255
225 237 255
226 238 255
226 238 255
226 238 255
226 238 255
227 238 255
227 238 255
227 238 255
227 239 255
228 239 255
228 239 255
228 239 255
228 239 255
229 239 255
229 239 255
229 240 255
229 240 255
229 240 255
230 240 255
230 240 255
230 240 255
230 240 255
230 240 255
230 240 255
231 241 255
231 241 255
231 241 255
231 241 255
231 241 255
231 241 255
232 241 255
232 241 255
232 241 255
232 241 255
232 241 255
232 241 255
232 241 255
232 242 255
232 242 255
232 242 255
232 242 255
232 242 255
232 242 255
232 242 255
232 242 255
232 242 255
232 242 255
232 242 255
232 242 255
232 242 255
232 242 255
232 241 255
232 241 255
232 241 255
232 241 255
232 241 255
232 241 255
232 241 255
231 241 255
231 241 255
231 241 255
231 241 255
231 241 255
231 241 255
230 240 255
230 240 255
230 240 255
230 240 255
230 240 255
230 240 255
229 240 255
229 240 255
229 240 255
229 239 255
229 239 255
228 239 255
228 239 255
228 239 255
228 239 255
227 239 255
227 238 255
227 238 255
227 238 255
226 238 255
226 238 255
226 238 255
226 238 255
225 237 255
225 237 255
225 237 255
225 237 255
224 237 255
224 237 255
224 237 255
225 237 255
225 237 255
225 237 255
225 237 255
226 238 255
226 238 255
226 238 255
226 238 255
227 238 255
227 238 255
227 238 255
227 239 255
227 239 255
228 239 255
228 239 255
228 239 255
228 239 255
229 239 255
229 240 255
229 240 255
229 240 255
230 240 255
230 240 255
230 240 255
230 240 255
230 240 255
231 241 255
231 241 255
231 241 255
231 241 255
231 241 255
231 241 255
232 241 255
232 241 255
232 241 255
232 241 255
232 241 255
232 242 255
232 242 255
232 242 255
233 242 255
233 242 255
233 242 255
233 242 255
233 242 255
233 242 255
233 242 255
233 242 255
233 242 255
233 242 255
233 242 255
233 242 255
233 242 255
233 242 255
233 242 255
233 242 255
233 242 255
233 242 255
233 242 255
233 242 255
232 242 255
232 242 255
232 242 255
232 241 255
232 241 255
232 241 255
232 241 255
232 241 255
231 241 255
231 241 255
231 241 255
231 241 255
231 241 255
231 241 255
230 240 255
230 240 255
230 240 255
230 240 255
230 240 255
229 240 255
229 240 255
229 240 255
229 239 255
228 239 255
228 239 255
228 239 255
228 239 255
227 239 255
227 239 255
227 238 255
227 238 255
227 238 255
226 238 255
226 238 255
226 238 255
226 238 255
225 237 255
225 237 255
225 237 255
225 237 255
225 237 255
225 237 255
226 238 255
226 238 255
226 238 255
226 238 255
227 238 255
227 238 255
227 238 255
227 239 255
228 239 255
228 239 255
228 239 255
228 239 255
229 239 255
229 239 255
229 240 255
229 240 255
229 240 255
230 240 255
230 240 255
230 240 255
230 240 255
231 241 255
231 241 255
231 241 255
231 241 255
231 241 255
231 241 255
232 241 255
232 241 255
232 241 255
232 241 255
232 242 255
232 242 255
233 242 255
233 242 255
233 242 255
233 242 255
233 242 255
233 242 255
233 242 255
233 242 255
233 242 255
233 242 255
233 242 255
233 242 255
233 242 255
233 242 255
234 242 255
234 242 255
233 242 255
233 242 255
233 242 255
233 242 255
233 242 255
233 242 255
233 242 255
233 242 255
233 242 255
233 242 255
233 242 255
233 242 255
233 242 255
233 242 255
232 242 255
232 242 255
232 241 255
232 241 255
232 241 255
232 241 255
231 241 255
231 241 255
231 241 255
231 241 255
231 241 255
231 241 255
230 240 255
230 240 255
230 240 255
230 240 255
229 240 255
229 240 255
229 240 255
229 239 255
229 239 255
228 239 255
228 239 255
228 239 255
228 239 255
227 239 255
227 238 255
227 238 255
227 238 255
226 238 255
226 238 255
226 238 255
226 238 255
225 237 255
225 237 255
226 238 255
226 238 255
226 238 255
226 238 255
227 238 255
227 238 255
227 239 255
227 239 255
228 239 255
228 239 255
228 239 255
228 239 255
229 239 255
229 240 255
229 240 255
229 240 255
230 240 255
230 240 255
230 240 255
230 240 255
230 240 255
231 241 255
231 241 255
231 241 255
231 241 255
231 241 255
232 241 255
232 241 255
232 241 255
232 242 255
232 242 255
233 242 255
233 242 255
233 242 255
233 242 255
233 242 255
233 242 255
233 242 255
233 242 255
234 242 255
234 242 255
234 242 255
234 242 255
234 243 255
234 243 255
234 243 255
234 243 255
234 243 255
234 243 255
234 243 255
234 243 255
234 243 255
234 243 255
234 243 255
234 243 255
234 243 255
234 243 255
234 242 255
234 242 255
234 242 255
234 242 255
233 242 255
233 242 255
233 242 255
233 242 255
233 242 255
233 242 255
233 242 255
233 242 255
232 242 255
232 242 255
232 241 255
232 241 255
232 241 255
231 241 255
231 241 255
231 241 255
231 241 255
231 241 255
230 240 255
230 240 255
230 240 255
230 240 255
230 240 255
229 240 255
229 240 255
229 240 255
229 239 255
228 239 255
228 239 255
228 239 255
228 239 255
227 239 255
227 239 255
227 238 255
227 238 255
226 238 255
226 238 255
226 238 255
226 238 255
226 238 255
226 238 255
227 238 255
227 238 255
227 239 255
227 239 255
228 239 255
228 239 255
228 239 255
228 239 255
229 239 255
229 240 255
229 240 255
229 240 255
230 240 255
230 240 255
230 240 255
230 240 255
231 241 255
231 241 255
231 241 255
231 241 255
231 241 255
232 241 255
232 241 255
232 241 255
232 242 255
232 242 255
233 242 255
233 242 255
233 242 255
233 242 255
233 242 255
233 242 255
233 242 255
234 242 255
234 242 255
234 243 255
234 243 255
234 243 255
234 243 255
234 243 255
234 243 255
234 243 255
234 243 255
234 243 255
235 243 255
235 243 255
235 243 255
235 243 255
235 243 255
235 243 255
235 243 255
235 243 255
234 243 255
234 243 255
234 243 255
234 243 255
234 243 255
234 243 255
234 243 255
234 243 255
234 243 255
234 242 255
234 242 255
233 242 255
233 242 255
233 242 255
233 242 255
233 242 255
233 242 255
233 242 255
232 242 255
232 242 255
232 241 255
232 241 255
232 241 255
231 241 255
231 241 255
231 241 255
231 241 255
231 241 255
230 240 255
230 240 255
230 240 255
230 240 255
229 240 255
229 240 255
229 240 255
229 239 255
228 239 255
228 239 255
228 239 255
228 239 255
227 239 255
227 239 255
227 238 255
227 238 255
226 238 255
226 238 255
227 238 255
227 238 255
227 239 255
228 239 255
228 239 255
228 239 255
228 239 255
229 239 255
229 239 255
229 240 255
229 240 255
229 240 255
230 240 255
230 240 255
230 240 255
230 240 255
231 241 255
231 241 255
231 241 255
231 241 255
232 241 255
232 241 255
232 241 255
232 241 255
232 242 255
233 242 255
233 242 255
233 242 255
233 242 255
233 242 255
233 242 255
234 242 255
234 242 255
234 243 255
234 243 255
234 243 255
234 243 255
234 243 255
234 243 255
235 243 255
235 243 255
235 243 255
235 243 255
235 243 255
235 243 255
235 243 255
235 243 255
235 243 255
235 243 255
235 243 255
235 243 255
235 243 255
235 243 255
235 243 255
235 243 255
235 243 255
235 243 255
235 243 255
235 243 255
235 243 255
235 243 255
234 243 255
234 243 255
234 243 255
234 243 255
234 243 255
234 243 255
234 242 255
234 242 255
233 242 255
233 242 255
233 242 255
233 242 255
233 242 255
233 242 255
232 242 255
232 241 255
232 241 255
232 241 255
232 241 255
231 241 255
231 241 255
231 241 255
231 241 255
230 240 255
230 240 255
230 240 255
230 240 255
229 240 255
229 240 255
229 240 255
229 239 255
229 239 255
228 239 255
228 239 255
228 239 255
228 239 255
227 239 255
227 238 255
227 238 255
227 239 255
228 239 255
228 239 255
228 239 255
228 239 255
229 239 255
229 239 255
229 240 255
229 240 255
230 240 255
230 240 255
230 240 255
230 240 255
230 240 255
231 241 255
231 241 255
231 241 255
231 241 255
232 241 255
232 241 255
232 241 255
232 242 255
232 242 255
233 242 255
233 242 255
233 242 255
233 242 255
233 242 255
234 242 255
234 242 255
234 243 255
234 243 255
234 243 255
234 243 255
235 243 255
235 243 255
235 243 255
235 243 255
235 243 255
235 243 255
235 243 255
235 243 255
235 243 255
235 243 255
235 243 255
235 243 255
236 244 255
236 244 255
236 244 255
236 244 255
236 244 255
236 244 255
236 244 255
236 244 255
235 243 255
235 243 255
235 243 255
235 243 255
235 243 255
235 243 255
235 243 255
235 243 255
235 243 255
235 243 255
235 243 255
235 243 255
234 243 255
234 243 255
234 243 255
234 243 255
234 242 255
234 242 255
233 242 255
233 242 255
233 242 255
233 242 255
233 242 255
232 242 255
232 242 255
232 241 255
232 241 255
232 241 255
231 241 255
231 241 255
231 241 255
231 241 255
230 240 255
230 240 255
230 240 255
230 240 255
230 240 255
229 240 255
229 240 255
229 239 255
229 239 255
228 239 255
228 239 255
228 239 255
228 239 255
227 239 255
228 239 255
228 239 255
228 239 255
229 239 255
229 239 255
229 240 255
229 240 255
230 240 255
230 240 255
230 240 255
230 240 255
230 240 255
231 241 255
231 241 255
231 241 255
231 241 255
232 241 255
232 241 255
232 241 255
232 242 255
233 242 255
233 242 255
233 242 255
233 242 255
233 242 255
234 242 255
234 242 255
234 243 255
234 243 255
234 243 255
234 243 255
235 243 255
235 243 255
235 243 255
235 243 255
235 243 255
235 243 255
235 243 255
235 243 255
236 244 255
236 244 255
236 244 255
236 244 255
236 244 255
236 244 255
236 244 255
236 244 255
236 244 255
236 244 255
236 244 255
236 244 255
236 244 255
236 244 255
236 244 255
236 244 255
236 244 255
236 244 255
236 244 255
236 244 255
236 244 255
236 244 255
235 243 255
235 243 255
235 243 255
235 243 255
235 243 255
235 243 255
235 243 255
235 243 255
234 243 255
234 243 255
234 243 255
234 243 255
234 242 255
234 242 255
233 242 255
233 242 255
233 242 255
233 242 255
233 242 255
232 242 255
232 241 255
232 241 255
232 241 255
231 241 255
231 241 255
231 241 255
231 241 255
230 240 255
230 240 255
230 240 255
230 240 255
230 240 255
229 240 255
229 240 255
229 239 255
229 239 255
228 239 255
228 239 255
228 239 255
228 239 255
229 239 255
229 239 255
229 240 255
229 240 255
230 240 255
230 240 255
230 240 255
230 240 255
231 241 255
231 241 255
231 241 255
231 241 255
231 241 255
232 241 255
232 241 255
232 241 255
232 242 255
233 242 255
233 242 255
233 242 255
233 242 255
233 242 255
234 242 255
234 242 255
234 243 255
234 243 255
234 243 255
235 243 255
235 243 255
235 243 255
235 243 255
235 243 255
235 243 255
235 243 255
236 244 255
236 244 255
236 244 255
236 244 255
236 244 255
236 244 255
236 244 255
236 244 255
236 244 255
236 244 255
236 244 255
236 244 255
236 244 255
237 244 255
237 244 255
237 244 255
237 244 255
236 244 255
236 244 255
236 244 255
236 244 255
236 244 255
236 244 255
236 244 255
236 244 255
236 244 255
236 244 255
236 244 255
236 244 255
236 244 255
235 243 255
235 243 255
235 243 255
235 243 255
235 243 255
235 243 255
235 243 255
234 243 255
234 243 255
234 243 255
234 242 255
234 242 255
233 242 255
233 242 255
233 242 255
233 242 255
233 242 255
232 242 255
232 241 255
232 241 255
232 241 255
231 241 255
231 241 255
231 241 255
231 241 255
231 241 255
230 240 255
230 240 255
230 240 255
230 240 255
229 240 255
229 240 255
229 239 255
229 239 255
228 239 255
